!!!!SEGMENT: pl-cz--ii-153--001_maader-ludwik--requiem-in-dis-requiem.krn
!!!cenid: 17xx:960
!!!COM: Maader, Ludwik
!!!COM-rismID: pe30020328
!!!CDT: <1794->1798
!!!CNT:
!!!OPR: Requiem in Dis
!!!OTL: Requiem
!!!OMV: 001
!!!PDT:
!!!AGN: Sacred; Requiem
!!!SMS-siglum: PL-CZ
!!!SMS-shelfmark: II-153
!!!SMS-shelfwork: 001-001 M
!!!SMS-variant:
!!!SMS-altvar:
!!!NIFC-rismSourceID: 300000766
!!!NIFC-rismChildID: 300000766
!!!NIFC-islandoraID: pl-cz:32572
!!!URL-pdf-islandora: https://repozytorium.nifc.pl/islandora/object/pl-cz%3A32572/datastream/PDF/view
!!!URL-scan: https://polish.musicsources.pl/pl/lokalizacje/galeria/rekopisy/6767/1 @EN{Scan on Polish Music Sources Website} @PL{Skany w portalu Dziedzictwo Muzyki Polskiej w otwartym dostępie}
!!!IIIF:
!!!ONB-nifc: UWAGA: części Requiem: Requiem, Dies irae, Domine Jesu Christe, Sanctus, Benedictus, Agnus, Lux aeterna, Requiem
!!!AIN: 1 alto 3 empty 1 organ 1 tenor 3 violn 1 vox
!!!key:
**kern	**fba	**dynam	**kern	**dynam	**kern	**dynam	**kern	**kern	**fba	**text	**kern	**text	**kern	**text	**kern	**text	**kern	**dynam	**kern	**dynam
*	*	*	*group3	*	*group3	*	*group3	*group2	*	*	*group2	*	*group2	*	*group2	*	*group1	*	*group1	*
*part10	*part10	*part10	*part9	*part9	*part8	*part8	*part7	*part6	*part6	*part6	*part5	*part5	*part4	*part4	*part3	*part3	*part2	*part2	*part1	*part1
*staff10	*	*	*staff9	*	*staff8	*	*staff7	*staff6	*	*staff6	*staff5	*staff5	*staff4	*staff4	*staff3	*staff3	*staff2	*	*staff1	*
*Iorgan	*	*	*Ivioln	*	*Ivioln	*	*Ivioln	*Iempty	*	*	*Itenor	*	*Ialto	*	*Ivox	*	*Iempty	*	*Iempty	*
*I"Organo	*	*	*I"Violino Secondo.	*	*I"Violino Primo	*	*I"Violino Principale	*I"Baſso	*	*	*I"Tenore	*	*I"Alto	*	*I"Canto	*	*I"Cornu Secondo Obl in Dis	*	*I"Cornu Primo in Dis Obl:	*
*I'org	*	*	*I'vl 2	*	*I'vl 1	*	*I'vl princ	*I'B	*	*	*I'T	*	*I'A	*	*I'S	*	*I'cor 2 in E♭	*	*I'cor 1 in E♭	*
*clefF4	*	*	*clefG2	*	*clefG2	*	*clefG2	*clefF4	*	*	*clefC4	*	*clefC3	*	*clefC1	*	*clefG2	*	*clefG2	*
*	*	*	*	*	*	*	*	*	*	*	*	*	*	*	*	*	*ITrd5c9	*	*ITrd5c9	*
*k[b-e-a-]	*	*	*k[b-e-a-]	*	*k[b-e-a-]	*	*k[b-e-a-]	*k[b-e-a-]	*	*	*k[b-e-a-]	*	*k[b-e-a-]	*	*k[b-e-]	*	*k[b-e-a-]	*	*k[b-e-a-]	*
*E-:	*	*	*E-:	*	*E-:	*	*E-:	*E-:	*	*	*E-:	*	*E-:	*	*E-:	*	*E-:	*	*E-:	*
*M4/4	*	*	*M4/4	*	*M4/4	*	*M4/4	*M4/4	*	*	*M4/4	*	*M4/4	*	*M4/4	*	*M4/4	*	*M4/4	*
*met(c)	*	*	*met(c)	*	*met(c)	*	*met(c)	*met(c)	*	*	*met(c)	*	*met(c)	*	*met(c)	*	*met(c)	*	*met(c)	*
*all\left or middle	*	*	*all\left or middle	*	*all\left or middle	*	*all\left or middle	*all\left or middle	*	*	*all\left or middle	*	*all\left or middle	*	*all\left or middle	*	*all\left or middle	*	*all\left or middle	*
*2\right	*	*	*2\right	*	*2\right	*	*2\right	*2\right	*	*	*2\right	*	*2\right	*	*2\right	*	*2\right	*	*2\right	*
=1	=1	=1	=1	=1	=1	=1	=1	=1	=1	=1	=1	=1	=1	=1	=1	=1	=1	=1	=1	=1
*	*	*	*^	*	*	*	*	*	*	*	*	*	*	*	*	*	*	*	*	*
*	*	*	*tremolo	*	*	*	*	*	*	*	*	*	*	*	*	*	*	*	*	*	*
!LO:TX:t=P:problem=kolejność znaków&colon;AA-E-B-	!	!	!	!	!	!	!	!	!	!	!	!	!	!	!	!	!	!	!	!	!
!	!	!	!LO:TX:a:i:t=Adagio.	!	!	!	!	!	!LO:TX:a:i:t=Adagio	!	!	!LO:TX:t=P:problem=kolejność znaków&colon;B-A-e-	!	!	!	!LO:TX:a:i:t=Adagio.	!	!	!	!	!
!LO:TX:a:i:t=Adagio	!	!	!	!	!	!LO:TX:a:i:t=Adagio	!	!	!LO:TX:t=P:problem=kolejność znaków&colon;BB-A-E-	!	!	!LO:TX:a:i:t=Adagio	!	!LO:TX:a:i:t=Adagio	!	!LO:TX:t=P:b-e-ee-:problem=znaki przykluczowe	!	!LO:TX:a:i:t=Adagio	!	!LO:TX:a:i:t=Adagio	!
!	!	!	!	!	!	!	!	!	!	!	!	!	!	!	!	!	!	!	!	!	!LO:DY:a:t=pia
!	!	!	!	!	!	!	!LO:DY:b:t=piano.	!	!	!	!	!	!	!	!	!	!	!	!	!	!
8E-\L	5_ 3_	p	8b-/L	8g\L	.	(16b-\LL	p	1ryy	1r	.	.	1r	.	1r	.	1r	.	2e-\	.	2g\	p
.	.	.	.	.	.	16ee-\	.	.	.	.	.	.	.	.	.	.	.	.	.	.	.
8E-\	x x	.	8b-/	8g\	.	16gg\	.	.	.	.	.	.	.	.	.	.	.	.	.	.	.
.	.	.	.	.	.	16ee-\JJ)	.	.	.	.	.	.	.	.	.	.	.	.	.	.	.
8E-\	x x	.	8b-/	8g\	.	(16b-\LL	.	.	.	.	.	.	.	.	.	.	.	.	.	.	.
.	.	.	.	.	.	16ee-\	.	.	.	.	.	.	.	.	.	.	.	.	.	.	.
8E-\J	X X	.	8b-/J	8g\J	.	16gg\	.	.	.	.	.	.	.	.	.	.	.	.	.	.	.
.	.	.	.	.	.	16ee-\JJ)	.	.	.	.	.	.	.	.	.	.	.	.	.	.	.
8D\L	6_ 5_	.	8b-/L	8a-\L	.	(16b-\LL	.	.	.	.	.	.	.	.	.	.	.	2f\	.	2a-\	.
.	.	.	.	.	.	16ff\	.	.	.	.	.	.	.	.	.	.	.	.	.	.	.
8D\	x x	.	8b-/	8a-\	.	16aa-\	.	.	.	.	.	.	.	.	.	.	.	.	.	.	.
.	.	.	.	.	.	16ff\JJ)	.	.	.	.	.	.	.	.	.	.	.	.	.	.	.
8D\	x x	.	8b-/	8a-\	.	(16b-\LL	.	.	.	.	.	.	.	.	.	.	.	.	.	.	.
.	.	.	.	.	.	16ff\	.	.	.	.	.	.	.	.	.	.	.	.	.	.	.
8D\J	X X	.	8b-/J	8a-\J	.	16aa-\	.	.	.	.	.	.	.	.	.	.	.	.	.	.	.
.	.	.	.	.	.	16ff\JJ)	.	.	.	.	.	.	.	.	.	.	.	.	.	.	.
=2	=2	=2	=2	=2	=2	=2	=2	=2	=2	=2	=2	=2	=2	=2	=2	=2	=2	=2	=2	=2	=2
*tremolo	*	*	*	*	*	*	*	*	*	*	*	*	*	*	*	*	*	*	*	*	*
8E-\L	.	.	8b-/L	8g\L	.	(16b-\LL	.	1ryy	1r	.	.	1r	.	1r	.	1r	.	2e-\	p	2g\	.
.	.	.	.	.	.	16ee-\	.	.	.	.	.	.	.	.	.	.	.	.	.	.	.
8E-\	.	.	8b-/	8g\	.	16gg\	.	.	.	.	.	.	.	.	.	.	.	.	.	.	.
.	.	.	.	.	.	16ee-\JJ)	.	.	.	.	.	.	.	.	.	.	.	.	.	.	.
8E-\	.	.	8b-/	8g\	.	(16b-\LL	.	.	.	.	.	.	.	.	.	.	.	.	.	.	.
.	.	.	.	.	.	16ee-\	.	.	.	.	.	.	.	.	.	.	.	.	.	.	.
8E-\J	.	.	8b-/J	8g\J	.	16gg\	.	.	.	.	.	.	.	.	.	.	.	.	.	.	.
.	.	.	.	.	.	16ee-\JJ)	.	.	.	.	.	.	.	.	.	.	.	.	.	.	.
.	.	.	.	.	.	8qqgg/	.	.	.	.	.	.	.	.	.	.	.	.	.	.	.
4BB-/	.	.	4b-/	4f\	.	8ff\L	.	.	.	.	.	.	.	.	.	.	.	4B-/	.	4f\	.
.	.	.	.	.	.	16ee-\L	.	.	.	.	.	.	.	.	.	.	.	.	.	.	.
.	.	.	.	.	.	16dd\JJ	.	.	.	.	.	.	.	.	.	.	.	.	.	.	.
4r	.	.	4r	4ryy	.	(16cc\LL	.	.	.	.	.	.	.	.	.	.	.	4r	.	4r	.
.	.	.	.	.	.	16b-\	.	.	.	.	.	.	.	.	.	.	.	.	.	.	.
.	.	.	.	.	.	16bb-\	.	.	.	.	.	.	.	.	.	.	.	.	.	.	.
.	.	.	.	.	.	16dd\JJ)	.	.	.	.	.	.	.	.	.	.	.	.	.	.	.
=3	=3	=3	=3	=3	=3	=3	=3	=3	=3	=3	=3	=3	=3	=3	=3	=3	=3	=3	=3	=3	=3
8E-\L	5	.	8b-/L	8g\L	.	(16b-\LL	.	1ryy	1r	.	.	1r	.	1r	.	1r	.	2e-\	.	2g\	.
.	.	.	.	.	.	16ee-\	.	.	.	.	.	.	.	.	.	.	.	.	.	.	.
8E-\	.	.	8b-/	8g\	.	16gg\	.	.	.	.	.	.	.	.	.	.	.	.	.	.	.
.	.	.	.	.	.	16ee-\JJ)	.	.	.	.	.	.	.	.	.	.	.	.	.	.	.
8E-\	.	.	8b-/	8g\	.	16b-\LL	.	.	.	.	.	.	.	.	.	.	.	.	.	.	.
.	.	.	.	.	.	16ee-\	.	.	.	.	.	.	.	.	.	.	.	.	.	.	.
8E-\J	.	.	8b-/J	8g\J	.	16gg\	.	.	.	.	.	.	.	.	.	.	.	.	.	.	.
.	.	.	.	.	.	16ee-\JJ	.	.	.	.	.	.	.	.	.	.	.	.	.	.	.
!	!	!	!	!	!	!LO:LB:g=original	!	!	!	!	!	!	!	!	!	!	!	!	!	!	!
8D\L	6 5	.	8b-/L	8a-\L	.	(16b-\LL	.	.	.	.	.	.	.	.	.	.	.	2f\	.	2a-\	.
.	.	.	.	.	.	16ff\	.	.	.	.	.	.	.	.	.	.	.	.	.	.	.
8D\	.	.	8b-/	8a-\	.	16aa-\	.	.	.	.	.	.	.	.	.	.	.	.	.	.	.
.	.	.	.	.	.	16ff\JJ)	.	.	.	.	.	.	.	.	.	.	.	.	.	.	.
8D\	.	.	8b-/	8a-\	.	(16b-\LL	.	.	.	.	.	.	.	.	.	.	.	.	.	.	.
.	.	.	.	.	.	16ff\	.	.	.	.	.	.	.	.	.	.	.	.	.	.	.
8D\J	.	.	8b-/J	8a-\J	.	16aa-\	.	.	.	.	.	.	.	.	.	.	.	.	.	.	.
.	.	.	.	.	.	16ff\JJ)	.	.	.	.	.	.	.	.	.	.	.	.	.	.	.
*Xtremolo	*	*	*	*Xtremolo	*	*	*	*	*	*	*	*	*	*	*	*	*	*	*	*	*
*	*	*	*v	*v	*	*	*	*	*	*	*	*	*	*	*	*	*	*	*	*	*
=4	=4	=4	=4	=4	=4	=4	=4	=4	=4	=4	=4	=4	=4	=4	=4	=4	=4	=4	=4	=4
8E-\L	5_ 3	.	4b-\	.	16gg\LL	.	1ryy	1r	.	.	1r	.	1r	.	1r	.	16e-\LL	.	16g\LL	.
.	.	.	.	.	16bb-\JJ	.	.	.	.	.	.	.	.	.	.	.	16g\J	.	16b-\J	.
8F\	x 6	.	.	.	(32bb-\LLL	.	.	.	.	.	.	.	.	.	.	.	8f\J	.	8b-\J	.
.	.	.	.	.	32aa-\	.	.	.	.	.	.	.	.	.	.	.	.	.	.	.
.	.	.	.	.	32ff\	.	.	.	.	.	.	.	.	.	.	.	.	.	.	.
.	.	.	.	.	32dd\JJJ)	.	.	.	.	.	.	.	.	.	.	.	.	.	.	.
8G\	x 6	.	4b-\	.	(16ee-\LL	.	.	.	.	.	.	.	.	.	.	.	8e-\L	.	2b-\	.
.	.	.	.	.	16b-\	.	.	.	.	.	.	.	.	.	.	.	.	.	.	.
8D\J	x 5	.	.	.	16ff\	.	.	.	.	.	.	.	.	.	.	.	16f\L	.	.	.
.	.	.	.	.	16aa-\JJ)	.	.	.	.	.	.	.	.	.	.	.	16a-\JJ	.	.	.
8E-\L	x 3	.	4b-\	.	(16gg\LL	.	.	.	.	.	.	.	.	.	.	.	8g\L	.	.	.
.	.	.	.	.	16bb-\JJ)	.	.	.	.	.	.	.	.	.	.	.	.	.	.	.
8F\	x 6	.	.	.	(32bb-\LLL	.	.	.	.	.	.	.	.	.	.	.	8f\	.	.	.
.	.	.	.	.	32aa-\	.	.	.	.	.	.	.	.	.	.	.	.	.	.	.
.	.	.	.	.	32ff\	.	.	.	.	.	.	.	.	.	.	.	.	.	.	.
.	.	.	.	.	32dd\JJJ)	.	.	.	.	.	.	.	.	.	.	.	.	.	.	.
8G\	x 6	.	4b-\	.	(16ee-\LL	.	.	.	.	.	.	.	.	.	.	.	8e-\J	.	8b-\	.
.	.	.	.	.	16b-\	.	.	.	.	.	.	.	.	.	.	.	.	.	.	.
!LO:TX:t=P:problem=cyfrowanie nieczytelne	!	!	!	!	!	!	!	!	!	!	!	!	!	!	!	!	!	!	!	!
8E-\J	X	.	.	.	16ff\	.	.	.	.	.	.	.	.	.	.	.	8r	.	8r	.
.	.	.	.	.	16aa-\JJ)	.	.	.	.	.	.	.	.	.	.	.	.	.	.	.
=5	=5	=5	=5	=5	=5	=5	=5	=5	=5	=5	=5	=5	=5	=5	=5	=5	=5	=5	=5	=5
!LO:TX:t=P:problem=mixed beam	!	!	!	!	!	!	!	!	!	!	!	!	!	!	!	!	!	!	!	!
!LO:LB:g=original	!	!	!	!	!	!	!	!	!	!	!	!	!	!	!	!	!	!	!	!
8.E-/L	5n 3	.	8.gg\L	.	16gg\LL	.	1ryy	1r	.	.	1r	.	1r	.	1r	.	1r	.	1r	.
.	.	.	.	.	16bbn\J	.	.	.	.	.	.	.	.	.	.	.	.	.	.	.
.	6	.	.	.	(8.ccc\J	.	.	.	.	.	.	.	.	.	.	.	.	.	.	.
16e-\Jk	.	.	16gg\Jk	.	.	.	.	.	.	.	.	.	.	.	.	.	.	.	.	.
8.d\L	7 5n	.	8.ff\L	.	.	.	.	.	.	.	.	.	.	.	.	.	.	.	.	.
.	.	.	.	.	16aan\KL)	.	.	.	.	.	.	.	.	.	.	.	.	.	.	.
.	6	.	.	.	(8.bb\J	.	.	.	.	.	.	.	.	.	.	.	.	.	.	.
16d\Jk	.	.	16ff\Jk	.	.	.	.	.	.	.	.	.	.	.	.	.	.	.	.	.
!	!	!	!LO:LB:g=original	!	!	!	!	!	!	!	!	!	!	!	!	!	!	!	!	!
8.c\L	7 5	.	8.ee-\L	.	.	.	.	.	.	.	.	.	.	.	.	.	.	.	.	.
.	.	.	.	.	16gg\KL)	.	.	.	.	.	.	.	.	.	.	.	.	.	.	.
.	6	.	.	.	(8.aa-X\J	.	.	.	.	.	.	.	.	.	.	.	.	.	.	.
16c\Jk	.	.	16ee-\Jk	.	.	.	.	.	.	.	.	.	.	.	.	.	.	.	.	.
8.B-\L	7 5#	.	8.dd\L	.	.	.	.	.	.	.	.	.	.	.	.	.	.	.	.	.
.	.	.	.	.	16ff#X\KL)	.	.	.	.	.	.	.	.	.	.	.	.	.	.	.
!	!	!	!	!	!LO:N:vis=8.	!	!	!	!	!	!	!	!	!	!	!	!	!	!	!
.	6	.	.	.	[8gg\J	.	.	.	.	.	.	.	.	.	.	.	.	.	.	.
16B-\Jk	.	.	16dd\Jk	.	.	.	.	.	.	.	.	.	.	.	.	.	.	.	.	.
=6	=6	=6	=6	=6	=6	=6	=6	=6	=6	=6	=6	=6	=6	=6	=6	=6	=6	=6	=6	=6
8.A-\L	7 5n	.	8.cc\L	.	16gg\LL]	.	1ryy	1r	.	.	1r	.	1r	.	1r	.	2r	.	2r	.
.	.	.	.	.	16een\JJ	.	.	.	.	.	.	.	.	.	.	.	.	.	.	.
.	6	.	.	.	8.ff\L	.	.	.	.	.	.	.	.	.	.	.	.	.	.	.
16A-\Jk	.	.	16cc\Jk	.	.	.	.	.	.	.	.	.	.	.	.	.	.	.	.	.
8.G\L	7 5	.	8.b-/L	.	.	.	.	.	.	.	.	.	.	.	.	.	.	.	.	.
.	.	.	.	.	16dd\L	.	.	.	.	.	.	.	.	.	.	.	.	.	.	.
.	6	.	.	.	16ee\	.	.	.	.	.	.	.	.	.	.	.	.	.	.	.
16E-\Jk	.	.	16g/Jk	.	16b-\JJ	.	.	.	.	.	.	.	.	.	.	.	.	.	.	.
8F\L	9 4	.	16g/LL	.	(16b-/LL	.	.	.	.	.	.	.	.	.	.	.	8r	.	8r	.
.	8_ 3_	.	16f/JJ	.	16a-/JJ)	.	.	.	.	.	.	.	.	.	.	.	.	.	.	.
8D\	.	.	16r	.	16r	.	.	.	.	.	.	.	.	.	.	.	8f\	.	8a-\	.
.	.	.	16f/	.	16a-|</	.	.	.	.	.	.	.	.	.	.	.	.	.	.	.
8E-\	9 4	.	16f/LL	.	(16a-/LL	.	.	.	.	.	.	.	.	.	.	.	8r	.	8r	.
.	8 3	.	16e-/JJ	.	16g/JJ)	.	.	.	.	.	.	.	.	.	.	.	.	.	.	.
8An\J	7 5	.	16r	.	16r	.	.	.	.	.	.	.	.	.	.	.	8e-\	.	8g\	.
.	.	.	16e-/	.	16g|</	.	.	.	.	.	.	.	.	.	.	.	.	.	.	.
=7	=7	=7	=7	=7	=7	=7	=7	=7	=7	=7	=7	=7	=7	=7	=7	=7	=7	=7	=7	=7
*	*	*	*^	*	*	*	*	*	*	*	*	*	*	*	*	*	*	*	*	*
!LO:TX:t=P:problem=mixed beam	!	!	!	!	!	!	!	!	!	!	!	!	!	!	!	!	!	!LO:TX:a:i:t=Solo	!	!LO:TX:a:i:t=Solo	!
!LO:LB:g=original	!	!	!	!	!	!LO:LB:g=original	!	!	!	!	!	!	!	!	!	!	!	!	!	!LO:LB:g=original	!
8B-\L	6 4	.	8e-T/L	2ryy	.	8gt/L	.	1ryy	2r	.	.	2r	.	2r	.	2r	.	8e-\L	.	8g\L	.
8BB-/J	5 3	.	8d/J	.	.	8f/J	.	.	.	.	.	.	.	.	.	.	.	16B-\L	.	16f\L	.
.	.	.	.	.	.	.	.	.	.	.	.	.	.	.	.	.	.	16g\JJ	.	16b-\JJ	.
4r	.	.	4r	.	.	4r	.	.	.	.	.	.	.	.	.	.	.	16g\LL	.	16b-\LL	.
.	.	.	.	.	.	.	.	.	.	.	.	.	.	.	.	.	.	16f\	.	16a-\	.
.	.	.	.	.	.	.	.	.	.	.	.	.	.	.	.	.	.	16e-\	.	16g\	.
.	.	.	.	.	.	.	.	.	.	.	.	.	.	.	.	.	.	16f\JJ	.	16a-\JJ	.
*tremolo	*	*	*tremolo	*tremolo	*	*	*	*	*	*	*	*	*	*	*	*	*	*	*	*	*
!	!	!	!	!	!	!	!	!	!	!	!	!	!	!	!	!	!	!LO:TX:a:i:t=Tutti	!	!LO:TX:a:i:t=Tutti	!
!	!	!	!LO:TX:a:i:t=Tutti	!	!	!LO:TX:a:i:t=Tutti	!	!	!	!	!	!	!	!	!	!	!	!LO:LB:g=original	!	!	!
!LO:TX:a:i:t=Tutti	!	!	!	!	!LO:DY:b:t=for.	!	!	!	!	!	!	!	!	!	!	!	!	!	!	!	!
8E-\L	.	.	8b-/L	8g\L	f	(16b-\LL	.	.	8.E-\	.	Re-	8.B-\	Re-	8.g\	Re-	8.ee-\	Re-	2e-\	.	2g\	.
.	.	.	.	.	.	16ee-\	.	.	.	.	.	.	.	.	.	.	.	.	.	.	.
8E-\	.	.	8b-/	8g\	.	16gg\	.	.	.	.	.	.	.	.	.	.	.	.	.	.	.
.	.	.	.	.	.	16ee-\JJ)	.	.	16E-\	.	-qui-	16B-\	-qui-	16g\	-qui-	16ee-\	-qui-	.	.	.	.
8E-\	.	.	8b-/	8g\	.	(16b-\LL	.	.	8E-\	.	-em	8B-\	-em	8g\	-em	8ee-\	-em	.	.	.	.
.	.	.	.	.	.	16ee-\	.	.	.	.	.	.	.	.	.	.	.	.	.	.	.
8E-\J	.	.	8b-/J	8g\J	.	16gg\	.	.	8E-\	.	ae-	8B-\	ae-	8g\	ae-	8ee-\	ae-	.	.	.	.
.	.	.	.	.	.	16ee-\JJ)	.	.	.	.	.	.	.	.	.	.	.	.	.	.	.
=8	=8	=8	=8	=8	=8	=8	=8	=8	=8	=8	=8	=8	=8	=8	=8	=8	=8	=8	=8	=8	=8
8D\L	6 5	.	8b-/L	8a-\L	.	(16b-\LL	.	1ryy	4D\	.	-ter-	4B-\	-ter-	4a-\	-ter-	4ff\	-ter-	2f\	.	2a-\	.
.	.	.	.	.	.	16ff\	.	.	.	.	.	.	.	.	.	.	.	.	.	.	.
8D\	.	.	8b-/	8a-\	.	16aa-\	.	.	.	.	.	.	.	.	.	.	.	.	.	.	.
.	.	.	.	.	.	16ff\JJ)	.	.	.	.	.	.	.	.	.	.	.	.	.	.	.
8D\	.	.	8b-/	8a-\	.	(16b-\LL	.	.	4D\	.	-nam	4B-\	-nam	4a-\	-nam	4ff\	-nam	.	.	.	.
.	.	.	.	.	.	16ff\	.	.	.	.	.	.	.	.	.	.	.	.	.	.	.
8D\J	.	.	8b-/J	8a-\J	.	16aa-\	.	.	.	.	.	.	.	.	.	.	.	.	.	.	.
.	.	.	.	.	.	16ff\JJ)	.	.	.	.	.	.	.	.	.	.	.	.	.	.	.
8E-\L	.	.	8b-/L	8g\L	.	(16b-\LL	.	.	8.E-\	.	do-	8.B-\	do-	8.g\	do-	8.ee-\	do-	2e-\	.	2g\	.
.	.	.	.	.	.	16ee-\	.	.	.	.	.	.	.	.	.	.	.	.	.	.	.
8E-\	.	.	8b-/	8g\	.	16gg\	.	.	.	.	.	.	.	.	.	.	.	.	.	.	.
.	.	.	.	.	.	16ee-\JJ)	.	.	16E-\	.	-na	16B-\	-na	16g\	-na	16ee-\	-na	.	.	.	.
8E-\	.	.	8b-/	8g\	.	(16b-\LL	.	.	8E-\	.	e-	8B-\	e-	8g\	e-	8ee-\	e-	.	.	.	.
.	.	.	.	.	.	16ee-\	.	.	.	.	.	.	.	.	.	.	.	.	.	.	.
8E-\J	.	.	8b-/J	8g\J	.	16gg\	.	.	8E-\	.	-is	8B-\	-is	8g\	-is	8ee-\	-is	.	.	.	.
.	.	.	.	.	.	16ee-\JJ)	.	.	.	.	.	.	.	.	.	.	.	.	.	.	.
=9	=9	=9	=9	=9	=9	=9	=9	=9	=9	=9	=9	=9	=9	=9	=9	=9	=9	=9	=9	=9	=9
!	!	!	!	!	!	!	!	!	!LO:LB:g=original	!	!	!	!	!	!	!	!	!	!	!	!
.	.	.	.	.	.	8qqgg/	.	.	.	.	.	.	.	.	.	.	.	.	.	.	.
4BB-/	.	.	4b-/	4f\	.	8ff\L	.	1ryy	8.B-\	.	Do-	8.B-\	Do-	8.f\	Do-	8.dd\	Do-	4B-/	.	4f\	.
.	.	.	.	.	.	8qqee-/	.	.	.	.	.	.	.	.	.	.	.	.	.	.	.
.	.	.	.	.	.	8dd\J	.	.	.	.	.	.	.	.	.	.	.	.	.	.	.
.	.	.	.	.	.	.	.	.	16BB-/	.	-mi-	16B-\	-mi-	16f\	-mi-	16dd\	-mi-	.	.	.	.
.	.	.	.	.	.	8qqcc/	.	.	.	.	.	.	.	.	.	.	.	.	.	.	.
4r	.	.	4r	4ryy	.	8b-\L	.	.	8BB-/	.	-ne	8B-\	-ne,	8f\	-ne	8dd\	-ne	4r	.	4r	.
.	.	.	.	.	.	16bb-\L	.	.	8r	.	.	8r	.	8r	.	8r	.	.	.	.	.
.	.	.	.	.	.	16dd\JJ	.	.	.	.	.	.	.	.	.	.	.	.	.	.	.
!	!	!	!	!	!	!	!	!	!	!	!	!LO:LB:g=original	!	!LO:LB:g=original	!	!LO:LB:g=original	!	!	!	!	!
8E-\L	.	.	8b-/L	8g\L	.	(16b-\LL	.	.	4E-\	.	et	4B-\	et	4g\	et	4ee-\	et	2e-\	.	2g\	.
.	.	.	.	.	.	16ee-\	.	.	.	.	.	.	.	.	.	.	.	.	.	.	.
8E-\	.	.	8b-/	8g\	.	16gg\	.	.	.	.	.	.	.	.	.	.	.	.	.	.	.
.	.	.	.	.	.	16ee-\JJ)	.	.	.	.	.	.	.	.	.	.	.	.	.	.	.
8E-\	.	.	8b-/	8g\	.	(16b-\LL	.	.	8E-\	.	lux	8B-\	lux	8g\	lux	8ee-\	lux	.	.	.	.
.	.	.	.	.	.	16ee-\	.	.	.	.	.	.	.	.	.	.	.	.	.	.	.
8E-\J	.	.	8b-/J	8g\J	.	16gg\	.	.	8E-\	.	per-	8B-\	per-	8g\	per-	8ee-\	per-	.	.	.	.
.	.	.	.	.	.	16ee-\JJ)	.	.	.	.	.	.	.	.	.	.	.	.	.	.	.
=10	=10	=10	=10	=10	=10	=10	=10	=10	=10	=10	=10	=10	=10	=10	=10	=10	=10	=10	=10	=10	=10
8D\L	6 5	.	8b-/L	8a-\L	.	(16b-\LL	.	1ryy	8.D\	.	-pe-	8.B-\	-pe-	8.a-\	-pe-	8.ff\	-pe-	2f\	.	2a-\	.
.	.	.	.	.	.	16ff\	.	.	.	.	.	.	.	.	.	.	.	.	.	.	.
8D\	.	.	8b-/	8a-\	.	16aa-\	.	.	.	.	.	.	.	.	.	.	.	.	.	.	.
.	.	.	.	.	.	16ff\JJ)	.	.	16D\	.	-tu-	16B-\	-tu-	16a-\	-tu-	16ff\	-tu-	.	.	.	.
8D\	.	.	8b-/	8a-\	.	(16b-\LL	.	.	4D\	.	-a	4B-\	-a	4a-\	-a	4ff\	-a	.	.	.	.
.	.	.	.	.	.	16ff\	.	.	.	.	.	.	.	.	.	.	.	.	.	.	.
8D\J	.	.	8b-/J	8a-\J	.	16aa-\	.	.	.	.	.	.	.	.	.	.	.	.	.	.	.
.	.	.	.	.	.	16ff\JJ)	.	.	.	.	.	.	.	.	.	.	.	.	.	.	.
*	*	*	*Xtremolo	*Xtremolo	*	*	*	*	*	*	*	*	*	*	*	*	*	*	*	*	*
!	!	!	!LO:LB:g=original	!LO:LB:g=original	!	!	!	!	!	!	!	!	!	!	!	!	!	!	!	!	!
8E-\L	5_ 3	.	16b-\LL	2ryy	.	16gg\LL	.	.	8E-\L	.	lu-	4B-\	lu-	8g\L	lu-	8ee-\L	lu-	16e-\LL	.	16g\LL	.
.	.	.	16b-\	.	.	16bb-\JJ	.	.	.	.	.	.	.	.	.	.	.	16g\J	.	16b-\J	.
8F\	x 6	.	16b-\	.	.	32bb-\LLL	.	.	8F\J	.	.	.	.	8a-\J	.	8dd\J	.	8f\J	.	8b-\J	.
.	.	.	.	.	.	32aa-\	.	.	.	.	.	.	.	.	.	.	.	.	.	.	.
.	.	.	16b-\JJ	.	.	32ff\	.	.	.	.	.	.	.	.	.	.	.	.	.	.	.
.	.	.	.	.	.	32dd\JJJ	.	.	.	.	.	.	.	.	.	.	.	.	.	.	.
8G\	x 6	.	16b-\LL	.	.	16ee-\LL	.	.	8G\	.	-ce-	8B-\	-ce-	8g\	-ce-	8ee-\	-ce-	8e-\L	.	[4b-\	.
.	.	.	16b-\	.	.	16b-\	.	.	.	.	.	.	.	.	.	.	.	.	.	.	.
8D\J	x 5	.	16b-\	.	.	16ff\	.	.	8D/	.	-at	8B-\	-at	8a-\	-at	8ff\	-at	16f\L	.	.	.
.	.	.	16b-\JJ	.	.	16aa-\JJ	.	.	.	.	.	.	.	.	.	.	.	16a-\JJ	.	.	.
*	*	*	*v	*v	*	*	*	*	*	*	*	*	*	*	*	*	*	*	*	*	*
=11	=11	=11	=11	=11	=11	=11	=11	=11	=11	=11	=11	=11	=11	=11	=11	=11	=11	=11	=11	=11
8E-\L	x 3	.	16b-\LL	.	16gg\LL	.	1ryy	8E-\L	.	e-	4B-\	e-	8g\L	e-	8ee-\L	e-	8g\L	.	4b-\]	.
.	.	.	16b-\	.	16bb-\JJ	.	.	.	.	.	.	.	.	.	.	.	.	.	.	.
8F\	x 6	.	16b-\	.	32bb-\LLL	.	.	8F\J	.	.	.	.	8a-\J	.	8dd\J	.	8f\	.	.	.
.	.	.	.	.	32aa-\	.	.	.	.	.	.	.	.	.	.	.	.	.	.	.
.	.	.	16b-\JJ	.	32ff\	.	.	.	.	.	.	.	.	.	.	.	.	.	.	.
.	.	.	.	.	32dd\JJJ	.	.	.	.	.	.	.	.	.	.	.	.	.	.	.
8G\J	X 6	.	16b-\LL	.	16ee-\LL	.	.	8G\	.	-is	8B-\	-is	8g\	-is	8ee-\	-is	8e-\J	.	8b-\	.
.	.	.	16b-\	.	16ee-\	.	.	.	.	.	.	.	.	.	.	.	.	.	.	.
8r	.	.	16dd\	.	16ff\	.	.	8r	.	.	16r	.	16r	.	16r	.	8r	.	8r	.
.	.	.	16ee-\JJ	.	16gg\JJ	.	.	.	.	.	16e-\	et	16b-\	et	16gg\	et	.	.	.	.
!	!	!	!	!	!LO:LB:g=original	!	!	!	!	!	!	!	!	!	!LO:SIC:v:s=16aa-\LL	!	!	!	!	!
8BB-/L	7	.	16ff\LL	.	16aa-\LL	.	.	4.BB-/	.	lu-	16f\LL	lux	8b-\	lux	16aa\LL	lux	2B-/	.	2b-\	.
.	.	.	16ee-\	.	16gg\	.	.	.	.	.	16e-\JJ	.	.	.	16gg\JJ	.	.	.	.	.
8BB-/	.	.	16dd\	.	16ff\	.	.	.	.	.	16d\LL	per-	8b-\	per-	16ff\LL	per-	.	.	.	.
.	.	.	16cc\JJ	.	16ee-\JJ	.	.	.	.	.	16c\JJ	.	.	.	16ee-\JJ	.	.	.	.	.
8BB-/	.	.	16b-/LL	.	16dd\LL	.	.	.	.	.	16B-\LL	-pe-	8b-\	-pe-	16dd\LL	-pe-	.	.	.	.
.	.	.	16a-/	.	16cc\	.	.	.	.	.	16A-\JJ	.	.	.	16cc\JJ	.	.	.	.	.
8BB-/J	.	.	16g/	.	16b-\	.	.	8BB-/	.	-ce-	16G/LL	-tu-	8b-\	-tu-	16b-\LL	-tu-	.	.	.	.
!	!	!	!	!	!	!	!	!	!	!	!	!	!	!	!LO:SIC:v:s=16a-\JJ	!	!	!	!	!
.	.	.	16f/JJ	.	16a-\JJ	.	.	.	.	.	16F/JJ	.	.	.	16a\JJ	.	.	.	.	.
=12	=12	=12	=12	=12	=12	=12	=12	=12	=12	=12	=12	=12	=12	=12	=12	=12	=12	=12	=12	=12
!	!	!	!	!	!	!	!	!	!	!	!	!	!LO:LB:g=original	!	!LO:LB:g=original	!	!	!	!	!
8E-\	.	.	16e-/LL	.	16g\LL	.	1ryy	8E-\	.	-at	8E-/	-a	8b-\	-a	8g\	-a	8e-\	.	8g\	.
.	.	.	16g/J	.	16b-\	.	.	.	.	.	.	.	.	.	.	.	.	.	.	.
8r	.	.	8g/J	.	16b-\	.	.	8r	.	.	8G/	lu-	8r	.	8b-\	lu-	8r	.	8r	.
.	.	.	.	.	16ee-\JJ	.	.	.	.	.	.	.	.	.	.	.	.	.	.	.
8r	.	.	16g\LL	.	16ee-\LL	.	.	4r	.	.	8G/	-ce-	4r	.	8ee-\	-ce-	4r	.	4r	.
.	.	.	16ee-\	.	16gg\	.	.	.	.	.	.	.	.	.	.	.	.	.	.	.
8E-\	.	.	16ee-\	.	16gg\	.	.	.	.	.	16e-\LL	-at	.	.	16gg\LL	-at	.	.	.	.
.	.	.	16gg\JJ	.	16bb-\JJ	.	.	.	.	.	16g\JJ	.	.	.	16bb-\JJ	.	.	.	.	.
!	!	!	!	!	!	!	!	!LO:LB:g=original	!	!	!LO:LB:g=original	!	!	!	!LO:SIC:v:s=16aa-\LL	!	!	!	!	!
8BB-/L	7	.	(32ff\LLL	.	32aa-\LLL	.	.	2BB-/	.	e-	16f\LL	e-	4b-\	lu-	16aa\LL	e-	2B-/	.	2b-\	.
.	.	.	32gg\	.	32bb-\	.	.	.	.	.	.	.	.	.	.	.	.	.	.	.
.	.	.	32ee-\	.	32gg\	.	.	.	.	.	16e-\JJ	.	.	.	16gg\JJ	.	.	.	.	.
.	.	.	32ff\JJJ)	.	32aa-\JJJ	.	.	.	.	.	.	.	.	.	.	.	.	.	.	.
8BB-/	.	.	(32dd\LLL	.	32ff\LLL	.	.	.	.	.	16d\LL	.	.	.	16ff\LL	.	.	.	.	.
.	.	.	32ee-\	.	32gg\	.	.	.	.	.	.	.	.	.	.	.	.	.	.	.
.	.	.	32cc\	.	32ee-\	.	.	.	.	.	16c\JJ	.	.	.	16ee-\JJ	.	.	.	.	.
.	.	.	32dd\JJJ)	.	32ff\JJJ	.	.	.	.	.	.	.	.	.	.	.	.	.	.	.
8BB-/	.	.	(32b-\LLL	.	32dd\LLL	.	.	.	.	.	16B-\LL	.	8b-\	-ce-	16dd\LL	.	.	.	.	.
.	.	.	32cc\	.	32ee-\	.	.	.	.	.	.	.	.	.	.	.	.	.	.	.
.	.	.	32a-\	.	32cc\	.	.	.	.	.	16A-\JJ	.	.	.	16cc\	.	.	.	.	.
.	.	.	32b-\JJJ)	.	32dd\JJJ	.	.	.	.	.	.	.	.	.	.	.	.	.	.	.
8BB-/J	.	.	(32g/LLL	.	32b-\LLL	.	.	.	.	.	16G/LL	.	8b-\	-at	16b-\	.	.	.	.	.
.	.	.	32a-/	.	32cc\	.	.	.	.	.	.	.	.	.	.	.	.	.	.	.
!	!	!	!	!	!	!	!	!	!	!	!	!	!	!	!LO:SIC:v:s=16a-\JJ	!	!	!	!	!
.	.	.	32f/	.	32a-\	.	.	.	.	.	16F/JJ	.	.	.	16a\JJ	.	.	.	.	.
.	.	.	32g/JJJ)	.	32b-\JJJ	.	.	.	.	.	.	.	.	.	.	.	.	.	.	.
*Xtremolo	*	*	*	*	*	*	*	*	*	*	*	*	*	*	*	*	*	*	*	*
=13	=13	=13	=13	=13	=13	=13	=13	=13	=13	=13	=13	=13	=13	=13	=13	=13	=13	=13	=13	=13
!	!	!	!	!	!	!	!	!	!	!	!	!	!	!	!	!	!	!	!LO:TX:t=P:problem=zbędne powtórzenie taktu	!
1ryy	.	.	1ryy	.	1ryy	.	1ryy	1ryy	.	.	1ryy	.	1ryy	.	1ryy	.	1ryy	.	8g\	.
.	.	.	.	.	.	.	.	.	.	.	.	.	.	.	.	.	.	.	8r	.
.	.	.	.	.	.	.	.	.	.	.	.	.	.	.	.	.	.	.	4r	.
.	.	.	.	.	.	.	.	.	.	.	.	.	.	.	.	.	.	.	2b-\	.
=14	=14	=14	=14	=14	=14	=14	=14	=14	=14	=14	=14	=14	=14	=14	=14	=14	=14	=14	=14	=14
!	!	!	!	!	!LO:TX:t=P:problem=mixed beam	!	!	!	!	!	!	!	!	!	!	!	!	!	!	!
8E-\	.	.	8e-/	.	16g/LL	.	1ryy	8E-\	.	-is	8E-/	-is	2b-\	e-	8g\	-is	8e-\	.	8g\	.
.	.	.	.	.	16ee-\	.	.	.	.	.	.	.	.	.	.	.	.	.	.	.
8r	.	.	8r	.	16dd\	.	.	8r	.	.	8G/	lu-	.	.	8ee-\	lu-	8r	.	8r	.
.	.	.	.	.	16ee-\JJ	.	.	.	.	.	.	.	.	.	.	.	.	.	.	.
8r	.	.	8r	.	16gg\LL	.	.	8r	.	.	8G/	-ce-	.	.	8ee-\	-ce-	4r	.	4r	.
.	.	.	.	.	16ee-\J	.	.	.	.	.	.	.	.	.	.	.	.	.	.	.
*	*	*	*	*	*	*	*	*	*	*ij	*	*	*	*	*	*	*	*	*	*
8e-\	.	.	8ee-\	.	8ee-\J	.	.	8e-\	.	e-	8G/	-at	.	.	8ee-\	-at	.	.	.	.
!LO:LB:g=original	!	!	!	!	!	!	!	!	!	!	!	!	!	!	!	!	!	!	!	!
8c\	.	.	8cc\	.	16r	.	.	8c\	.	-is	2G/	e-	[<2cc\	.	[2ee-\	e-	2r	.	2r	.
.	.	.	.	.	16ee-\LL	.	.	.	.	.	.	.	.	.	.	.	.	.	.	.
8r	.	.	8r	.	16dd\	.	.	8r	.	.	.	.	.	.	.	.	.	.	.	.
.	.	.	.	.	16ee-\JJ	.	.	.	.	.	.	.	.	.	.	.	.	.	.	.
8r	.	.	8r	.	16gg\LL	.	.	8r	.	.	.	.	.	.	.	.	.	.	.	.
.	.	.	.	.	16ee-\J	.	.	.	.	.	.	.	.	.	.	.	.	.	.	.
8c\	.	.	8cc\	.	8ee-\J	.	.	8c\	.	e-	.	.	.	.	.	.	.	.	.	.
=15	=15	=15	=15	=15	=15	=15	=15	=15	=15	=15	=15	=15	=15	=15	=15	=15	=15	=15	=15	=15
!	!	!	!LO:LB:g=original	!	!	!	!	!	!	!	!	!	!	!	!	!	!	!	!LO:LB:g=original	!
8An\	.	.	8an/	.	16r	.	1ryy	8An\	.	-is	2G-X/	.	2cc\]	.	2ee-\]	.	2r	.	2r	.
*	*	*	*	*	*	*	*	*	*	*Xij	*	*	*	*	*	*	*	*	*	*
.	.	.	.	.	16ee-\LL	.	.	.	.	.	.	.	.	.	.	.	.	.	.	.
8r	.	.	8r	.	16dd\	.	.	8r	.	.	.	.	.	.	.	.	.	.	.	.
.	.	.	.	.	16ee-\JJ	.	.	.	.	.	.	.	.	.	.	.	.	.	.	.
8r	.	.	8r	.	16gg\LL	.	.	8r	.	.	.	.	.	.	.	.	.	.	.	.
.	.	.	.	.	16ee-\J	.	.	.	.	.	.	.	.	.	.	.	.	.	.	.
8A\	.	.	8a/	.	8ee-\J	.	.	8A\	.	lu-	.	.	.	.	.	.	.	.	.	.
.	.	.	.	.	8qqee-/	.	.	.	.	.	.	.	.	.	.	.	.	.	.	.
8B-\L	.	.	4b-\	.	8dd\L	.	.	8B-\L	.	.	4F/	.	4b-\	.	4dd\	.	4B-/	.	4f\	.
8A-X\	2	.	.	.	16cc\L	.	.	8A-X\J	.	.	.	.	.	.	.	.	.	.	.	.
.	.	.	.	.	16b-\JJ	.	.	.	.	.	.	.	.	.	.	.	.	.	.	.
8G\	6	.	4b-\	.	8ee-\L	.	.	8G\	.	-ce-	8Gn/	-is	8b-\	-is	4ee-\	-is	4e-\	.	4g\	.
8E-\J	.	.	.	.	8gg\J	.	.	8E-\	.	-at	8B-\	e-	8g\	lu-	.	.	.	.	.	.
=16	=16	=16	=16	=16	=16	=16	=16	=16	=16	=16	=16	=16	=16	=16	=16	=16	=16	=16	=16	=16
!	!	!	!	!	!	!	!	!	!	!	!	!	!LO:N:vis=8.	!	!	!	!	!	!	!
!	!	!	!	!	!	!	!	!	!	!	!	!	!	!	!	!	!LO:LB:g=original	!	!	!
!	!	!	!	!	!LO:LB:g=original	!	!	!	!	!	!	!	!	!	!LO:TUP:a:global:problem=klamra łukowa, kropka zamiast numeru	!	!	!	!	!
!	!	!	!LO:TUP:b:problem=klamra łukowa, kropka zamiast numeru	!	!LO:TUP:a:problem=klamra łukowa, kropka zamiast numeru	!	!	!	!	!	!	!	!	!	!	!	!	!	!	!
4A-\	.	.	24a-/LL	.	24cc\LL	.	1ryy	4A-X\	.	e-	4c\	.	16.a-\	-ce-	24cc\LL	e-	8r	.	8r	.
.	.	.	24b-/	.	24ff\	.	.	.	.	.	.	.	.	.	24ff\	.	.	.	.	.
.	.	.	24cc/JJ	.	24gg\JJ	.	.	.	.	.	.	.	.	.	24gg\JJ	.	.	.	.	.
!	!	!	!	!	!	!	!	!	!	!	!	!	!LO:N:vis=16	!	!	!	!	!	!	!
.	.	.	.	.	.	.	.	.	.	.	.	.	32a-\	-at	.	.	.	.	.	.
*	*	*	*	*	*	*	*	*	*	*	*	*	*Xtuplet	*	*	*	*	*	*	*
*	*	*	*Xtuplet	*	*	*	*	*	*	*	*	*	*	*	*	*	*	*	*	*
!	!	!	!	!	!LO:TUP:a	!	!	!	!	!	!	!	!LO:TUP:a:problem=klamra łukowa, kropka zamiast numeru	!	!LO:SIC:v:s=24aa-\LL	!	!	!	!	!
!	!	!	!	!	!	!	!	!	!	!	!	!	!	!	!LO:TUP:a	!	!	!	!	!
.	.	.	24cc/LL	.	24aa-\LL	.	.	.	.	.	.	.	24b-\LL	e-	24aa\LL	.	8f\L	.	8a-\L	.
.	.	.	24b-/	.	24gg\	.	.	.	.	.	.	.	24a-\	.	24gg\	.	.	.	.	.
.	.	.	24a-/JJ	.	24ff\JJ	.	.	.	.	.	.	.	24g\JJ	.	24ff\JJ	.	.	.	.	.
!LO:TX:t=P:problem=mixed beam	!	!	!	!	!	!	!	!LO:TX:t=P:problem=mixed beam	!	!	!	!	!	!	!	!	!	!	!	!
.	.	.	8qqa-/	.	8qqff/	.	.	.	.	.	.	.	8qqa-/	.	8qqff/	.	.	.	.	.
8B-\L	6 4	.	8g/L	.	8ee-\L	.	.	8B-\L	.	.	4B-\	.	8g\L	.	8ee-\L	.	8e-\	.	8g\	.
.	.	.	8qqg/	.	8qqee-/	.	.	.	.	.	.	.	8qqg/	.	8qqee-/	.	.	.	.	.
8BB-/J	5 3	.	8f/J	.	8dd\J	.	.	8BB-/J	.	.	.	.	8f\J	.	8dd\J	.	8B-\J	.	8f\J	.
!	!	!	!LO:TX:a:i:t=Stocato	!	!	!	!	!	!	!	!	!	!	!	!	!	!	!	!	!
!	!	!	!	!	!LO:TX:t=P:problem=mixed beam	!	!	!	!	!	!	!	!	!	!	!	!	!	!	!
!	!	!	!	!	!	!	!	!	!	!	!	!	!	!	!LO:LB:g=original	!	!	!	!	!
!	!	!	!	!	!	!LO:DY:b:t=forte	!	!	!	!	!	!	!	!	!	!	!	!	!	!
!	!	!	!	!LO:DY:b:t=for:	!	!	!	!	!	!	!	!	!	!	!	!	!	!	!	!
8E-\	.	.	16g/LL	f	16ee-|>\LL	f	.	4E-\	.	-is	4B-\	-is	4g\	-is	4ee-\	-is	4e-\	.	4g\	.
.	.	.	16e-'/	.	16e-|>/	.	.	.	.	.	.	.	.	.	.	.	.	.	.	.
8r	.	.	16e-'/	.	16e-|>/	.	.	.	.	.	.	.	.	.	.	.	.	.	.	.
.	.	.	16e-'/JJ	.	16e-|>/JJ	.	.	.	.	.	.	.	.	.	.	.	.	.	.	.
4r	.	.	16e-'/LL	.	16e-|>/LL	.	.	4r	.	.	4r	.	4r	.	4r	.	4r	.	4r	.
.	.	.	16e-'/	.	16e-|>/	.	.	.	.	.	.	.	.	.	.	.	.	.	.	.
.	.	.	16e-'/	.	16e-|>/	.	.	.	.	.	.	.	.	.	.	.	.	.	.	.
.	.	.	16e-'/JJ	.	16e-|>/JJ	.	.	.	.	.	.	.	.	.	.	.	.	.	.	.
=17	=17	=17	=17	=17	=17	=17	=17	=17	=17	=17	=17	=17	=17	=17	=17	=17	=17	=17	=17	=17
*	*	*	*^	*	*^	*	*	*	*	*	*	*	*	*	*	*	*	*	*	*
!	!	!	!LO:TX:a:i:t=S\nCorni	!	!	!LO:TX:a:i:t=Solo\nCorni	!	!	!	!	!	!	!	!	!	!	!	!	!LO:TX:a:i:t=Solo	!	!LO:TX:a:i:t=Solo	!
!	!	!	!	!	!LO:DY:b:t=piano	!	!	!	!	!	!	!	!	!	!	!	!	!	!	!	!	!
!	!	!LO:DY:b:t=piano.	!	!	!	!	!	!	!	!	!	!	!	!	!	!	!	!	!	!	!	!
8BB-|</L	.	p	2ryy	8dN/L	p	2ryy	8fN/L	p	1ryy	1r	.	.	1r	.	1r	.	1r	.	8B-/L	.	8f\L	.
8E-|</	.	.	.	8e-N/	.	.	8e-N/	.	.	.	.	.	.	.	.	.	.	.	8G/	.	8e-\	.
8BB-|</	.	.	.	8dN/	.	.	8fN/	.	.	.	.	.	.	.	.	.	.	.	8B-/	.	8f\	.
8E-|</J	.	.	.	8e-N/J	.	.	8e-N/J	.	.	.	.	.	.	.	.	.	.	.	8G/J	.	8e-\J	.
!	!	!	!LO:TX:a:i:t=Violin	!	!	!	!	!	!	!	!	!	!	!	!	!	!	!	!	!	!	!
!	!	!	!LO:TX:t=P:problem=mixed beam	!	!	!LO:TX:t=P:problem=mixed beam	!	!	!	!	!	!	!	!	!	!	!	!	!	!	!	!
!	!	!	!	!	!LO:DY:b:t=forte	!	!	!	!	!	!	!	!	!	!	!	!	!	!	!	!	!
!	!	!LO:DY:b:t=for.	!	!	!	!	!	!	!	!	!	!	!	!	!	!	!	!	!	!	!	!
8BB-/	.	f	16ff|>/LL	2ryy	f	16ff|>\LL	2ryy	f	.	.	.	.	.	.	.	.	.	.	16BB-/LL	.	2r	.
.	.	.	16B-'/	.	.	16B-|>/	.	.	.	.	.	.	.	.	.	.	.	.	16B-/	.	.	.
8r	.	.	16B-'/	.	.	16B-|>/	.	.	.	.	.	.	.	.	.	.	.	.	16BB-/	.	.	.
.	.	.	16B-'/JJ	.	.	16B-|>/JJ	.	.	.	.	.	.	.	.	.	.	.	.	16B-/JJ	.	.	.
4r	.	.	16B-'/LL	.	.	16B-|>/LL	.	.	.	.	.	.	.	.	.	.	.	.	16BB-/LL	.	.	.
.	.	.	16B-'/	.	.	16B-|>/	.	.	.	.	.	.	.	.	.	.	.	.	16B-/	.	.	.
.	.	.	16B-'/	.	.	16B-|>/	.	.	.	.	.	.	.	.	.	.	.	.	16BB-/	.	.	.
.	.	.	16B-'/JJ	.	.	16B-|>/JJ	.	.	.	.	.	.	.	.	.	.	.	.	16B-/JJ	.	.	.
=18	=18	=18	=18	=18	=18	=18	=18	=18	=18	=18	=18	=18	=18	=18	=18	=18	=18	=18	=18	=18	=18	=18
!	!	!	!LO:TX:a:i:t=Corni\nSolo	!	!	!LO:TX:a:i:t=Solo\nCorni	!	!	!	!	!	!	!	!	!	!	!	!	!	!	!	!
!	!	!	!	!	!LO:DY:b:t=piano	!	!	!	!	!	!	!	!	!	!	!	!	!	!	!	!	!
8BB-|>\L	.	p	2ryy	8fN'/L	p	2ryy	8a-N/L	p	1ryy	2r	.	.	2r	.	2r	.	2r	.	8f\L	.	8a-\L	.
8E-|>\	.	.	.	8e-N'/	.	.	8gN/	.	.	.	.	.	.	.	.	.	.	.	8e-\	.	8g\	.
8BB-|>\	.	.	.	8fN'/	.	.	8a-N/	.	.	.	.	.	.	.	.	.	.	.	8f\	.	8a-\	.
8E-|>\J	.	.	.	8e-N'/J	.	.	8gN/J	.	.	.	.	.	.	.	.	.	.	.	8e-\J	.	8g\J	.
!	!	!	!LO:TX:a:i:t=Violin	!	!	!	!	!	!	!	!	!	!	!	!	!	!	!	!	!	!	!
!	!	!	!LO:TX:t=P:problem=mixed beam	!	!	!LO:TX:t=P:problem=mixed beam	!	!	!	!	!	!	!	!	!	!	!	!	!	!	!	!
!	!	!	!	!	!	!	!	!LO:DY:b:t=for:	!	!	!	!	!	!	!	!	!	!	!	!	!	!
!	!	!	!	!	!LO:DY:b:t=forte	!	!	!	!	!	!	!	!	!	!	!	!	!	!	!	!	!
8E-\	.	f	8G/ 8e-	2rcccyy	f	(16ee-\LL	2ryy	f	.	4r	.	.	4r	.	4r	.	4r	.	2r	.	2r	.
.	.	.	.	.	.	16e-/)	.	.	.	.	.	.	.	.	.	.	.	.	.	.	.	.
8r	.	.	8re	.	.	16e-|</	.	.	.	.	.	.	.	.	.	.	.	.	.	.	.	.
.	.	.	.	.	.	16e-|</JJ	.	.	.	.	.	.	.	.	.	.	.	.	.	.	.	.
8r	.	.	8re	.	.	16e-|</LL	.	.	.	8r	.	.	8r	.	8r	.	8r	.	.	.	.	.
.	.	.	.	.	.	16e-|</	.	.	.	.	.	.	.	.	.	.	.	.	.	.	.	.
8d-X\	4 2	.	8e-/	.	.	(16g/	.	.	.	8d-X\	.	lu-	8E-/	lu-	8b-\	lu-	8g\	lu-	.	.	.	.
.	.	.	.	.	.	16e-/JJ)	.	.	.	.	.	.	.	.	.	.	.	.	.	.	.	.
*	*	*	*v	*v	*	*	*	*	*	*	*	*	*	*	*	*	*	*	*	*	*	*
*	*	*	*	*	*v	*v	*	*	*	*	*	*	*	*	*	*	*	*	*	*	*
=19	=19	=19	=19	=19	=19	=19	=19	=19	=19	=19	=19	=19	=19	=19	=19	=19	=19	=19	=19	=19
!	!	!	!LO:LB:g=original	!	!LO:LB:g=original	!	!	!	!	!	!	!	!LO:LB:g=original	!	!LO:SIC:v:s=8a-\	!	!	!	!	!
8c\L	6	.	8e-/L	.	(16a-/LL	.	1ryy	8c\	.	-ce-	8E-/	-ce-	8a-\	-ce-	8a\	-ce-	2r	.	2r	.
.	.	.	.	.	16e-/)	.	.	.	.	.	.	.	.	.	.	.	.	.	.	.
8G\	6	.	8e-/	.	(16b-/	.	.	8G\	.	-at	8E-/	-at	8b-\	-at	8b-\	-at	.	.	.	.
.	.	.	.	.	16e-/JJ)	.	.	.	.	.	.	.	.	.	.	.	.	.	.	.
!	!	!	!	!	!LO:TX:t=P:problem=mixed beam	!	!	!	!	!	!	!	!	!	!	!	!	!	!	!
8A-\	3	.	8e-/	.	(16cc\LL	.	.	8A-\L	.	e-	8E-/L	e-	4a-\	e-	8cc\L	e-	.	.	.	.
.	.	.	.	.	16e-/)	.	.	.	.	.	.	.	.	.	.	.	.	.	.	.
8F\J	6	.	8a-/J	.	(16dd\	.	.	8F\J	.	.	8F/J	.	.	.	8dd\J	.	.	.	.	.
.	.	.	.	.	16e-/JJ)	.	.	.	.	.	.	.	.	.	.	.	.	.	.	.
!	!	!	!	!	!LO:TX:t=P:problem=mixed beam	!	!	!	!	!	!	!	!	!	!	!	!	!	!	!
!LO:LB:g=original	!	!	!	!	!	!	!	!LO:LB:g=original	!	!	!LO:LB:g=original	!	!	!	!	!	!	!	!	!
8E-\	.	.	8g/	.	(16ee-\LL	.	.	8E-\	.	-is	8G/	-is	8g\	-is	8ee-\	-is	8r	.	8r	.
.	.	.	.	.	16e-/)	.	.	.	.	.	.	.	.	.	.	.	.	.	.	.
!	!	!	!	!	!	!	!	!	!	!	!	!	!	!	!	!	!	!	!LO:TX:a:i:t=Tutti	!
8r	.	.	8r	.	16e-|</	.	.	8r	.	.	8r	.	8r	.	8r	.	8G/	.	8e-\	.
.	.	.	.	.	16e-|</JJ	.	.	.	.	.	.	.	.	.	.	.	.	.	.	.
8r	.	.	8r	.	16e-|</LL	.	.	8r	.	.	8r	.	8r	.	8r	.	4G/	.	4e-\	.
.	.	.	.	.	16e-|</	.	.	.	.	.	.	.	.	.	.	.	.	.	.	.
8d-X\	4 2	.	8e-/	.	(16g/	.	.	8d-X\	.	lu-	8E-/	lu-	8b-\	lu-	8g/	lu-	.	.	.	.
.	.	.	.	.	16e-/JJ)	.	.	.	.	.	.	.	.	.	.	.	.	.	.	.
=20	=20	=20	=20	=20	=20	=20	=20	=20	=20	=20	=20	=20	=20	=20	=20	=20	=20	=20	=20	=20
*	*	*	*^	*	*	*	*	*	*	*	*	*	*	*	*	*	*	*	*	*
!	!	!	!	!	!	!LO:LB:g=original	!	!	!	!	!	!	!	!	!	!LO:SIC:v:s=8a-\	!	!	!	!	!
8c\L	6	.	8e-/L	2rcyy	.	(16a-/LL	.	1ryy	8c\	.	-ce-	8E-/	-ce-	8a-\	-ce-	8a\	-ce-	2r	.	2r	.
.	.	.	.	.	.	16e-/)	.	.	.	.	.	.	.	.	.	.	.	.	.	.	.
8G\	6	.	8e-/	.	.	(16b-/	.	.	8G\	.	-at	8E-/	-at	8b-\	-at	8b-\	-at	.	.	.	.
.	.	.	.	.	.	16e-/JJ)	.	.	.	.	.	.	.	.	.	.	.	.	.	.	.
!	!	!	!	!	!	!LO:TX:t=P:problem=mixed beam	!	!	!	!	!	!	!	!	!	!	!	!	!	!	!
8A-\	3	.	8e-/	.	.	(16cc\LL	.	.	8A-\L	.	e-	8E-/L	e-	4a-\	e-	8cc\L	e-	.	.	.	.
.	.	.	.	.	.	16e-/)	.	.	.	.	.	.	.	.	.	.	.	.	.	.	.
8F\J	6	.	8a-/J	.	.	(16dd\	.	.	8F\J	.	.	8F/J	.	.	.	8dd\J	.	.	.	.	.
.	.	.	.	.	.	16e-/JJ)	.	.	.	.	.	.	.	.	.	.	.	.	.	.	.
8E-\L	.	.	8g/L	8reyy	.	(16ee-\LL	.	.	4E-\	.	-is	4G/	-is	4g\	-is,	4ee-\	-is	4G/	.	4e-\	.
.	.	.	.	.	.	16b-\)	.	.	.	.	.	.	.	.	.	.	.	.	.	.	.
8e-\	.	.	8b-/	8g\L	.	16b-|>\	.	.	.	.	.	.	.	.	.	.	.	.	.	.	.
.	.	.	.	.	.	16b-|>\JJ	.	.	.	.	.	.	.	.	.	.	.	.	.	.	.
8e-\	.	.	8b-/	8g\	.	(16gg\LL	.	.	4e-\	.	e-	4E-/	e-	4b-\	e-	4gg\	e-	4e-\	.	4g\	.
.	.	.	.	.	.	16b-\)	.	.	.	.	.	.	.	.	.	.	.	.	.	.	.
8e-\J	.	.	8b-/J	8g\J	.	16b-|>\	.	.	.	.	.	.	.	.	.	.	.	.	.	.	.
.	.	.	.	.	.	16b-|>\JJ	.	.	.	.	.	.	.	.	.	.	.	.	.	.	.
=21	=21	=21	=21	=21	=21	=21	=21	=21	=21	=21	=21	=21	=21	=21	=21	=21	=21	=21	=21	=21	=21
*tremolo	*	*	*tremolo	*tremolo	*	*	*	*	*	*	*	*	*	*	*	*	*	*	*	*	*
8d\L	6	.	8b-/L	8f\L	.	(16ff\LL	.	1ryy	2d\	.	.	[>1F	.	2b-\	.	2ff\	.	2B-/	.	1f	.
.	.	.	.	.	.	16b-\)	.	.	.	.	.	.	.	.	.	.	.	.	.	.	.
8d\	.	.	8b-/	8f\	.	16b-|>\	.	.	.	.	.	.	.	.	.	.	.	.	.	.	.
.	.	.	.	.	.	16b-|>\JJ	.	.	.	.	.	.	.	.	.	.	.	.	.	.	.
8d\	.	.	8b-/	8f\	.	16bb-\LL	.	.	.	.	.	.	.	.	.	.	.	.	.	.	.
.	.	.	.	.	.	16ff\	.	.	.	.	.	.	.	.	.	.	.	.	.	.	.
8d\J	.	.	8b-/J	8f\J	.	16ff\	.	.	.	.	.	.	.	.	.	.	.	.	.	.	.
.	.	.	.	.	.	16ff\JJ	.	.	.	.	.	.	.	.	.	.	.	.	.	.	.
*Xtremolo	*	*	*Xtremolo	*Xtremolo	*	*	*	*	*	*	*	*	*	*	*	*	*	*	*	*	*
!	!	!	!	!	!	!LO:TX:t=P:problem=mixed beam	!	!	!	!	!	!	!	!	!	!	!	!	!	!	!
8c\L	6	.	8cc\L	2ryy	.	16ee-\LL	.	.	2An\	.	.	.	.	2cc\	.	2ee-\	.	2f\	.	.	.
.	.	.	.	.	.	16f/	.	.	.	.	.	.	.	.	.	.	.	.	.	.	.
8An\J	6 5	.	8an\	.	.	16f/	.	.	.	.	.	.	.	.	.	.	.	.	.	.	.
.	.	.	.	.	.	16f/JJ	.	.	.	.	.	.	.	.	.	.	.	.	.	.	.
!	!	!	!	!	!	!LO:TX:t=P:problem=mixed beam	!	!	!	!	!	!	!	!	!	!	!	!	!	!	!
8r	.	.	8a\	.	.	16cc\LL	.	.	.	.	.	.	.	.	.	.	.	.	.	.	.
.	.	.	.	.	.	16f/	.	.	.	.	.	.	.	.	.	.	.	.	.	.	.
8A\	.	.	8cc\J	.	.	16ee-\	.	.	.	.	.	.	.	.	.	.	.	.	.	.	.
.	.	.	.	.	.	16f/JJ	.	.	.	.	.	.	.	.	.	.	.	.	.	.	.
*	*	*	*v	*v	*	*	*	*	*	*	*	*	*	*	*	*	*	*	*	*	*
=22	=22	=22	=22	=22	=22	=22	=22	=22	=22	=22	=22	=22	=22	=22	=22	=22	=22	=22	=22	=22
!	!	!	!	!	!LO:TX:t=P:problem=mixed beam	!	!	!	!	!	!	!	!	!	!	!	!	!	!	!
8B-\L	.	.	8b-\L	.	(16dd\LL	.	1ryy	2B-\	.	.	1F]	.	2b-\	.	2dd\	.	1f	.	1f	.
.	.	.	.	.	16f/)	.	.	.	.	.	.	.	.	.	.	.	.	.	.	.
8d\J	6	.	8dd\J	.	16f'/	.	.	.	.	.	.	.	.	.	.	.	.	.	.	.
.	.	.	.	.	16f'/JJ	.	.	.	.	.	.	.	.	.	.	.	.	.	.	.
!	!	!	!	!	!LO:TX:t=P:problem=mixed beam	!	!	!	!	!	!	!	!	!	!	!	!	!	!	!
8r	.	.	8r	.	16b-/LL	.	.	.	.	.	.	.	.	.	.	.	.	.	.	.
.	.	.	.	.	16f/	.	.	.	.	.	.	.	.	.	.	.	.	.	.	.
8B-\	.	.	8dd\	.	16dd\	.	.	.	.	.	.	.	.	.	.	.	.	.	.	.
.	.	.	.	.	16f/JJ	.	.	.	.	.	.	.	.	.	.	.	.	.	.	.
!	!	!	!	!	!LO:TX:t=P:problem=mixed beam	!	!	!	!	!	!	!	!	!	!	!	!	!	!	!
8c\L	.	.	8cc\L	.	16ee-\LL	.	.	2An\	.	.	.	.	2cc\	.	2ee-\	.	.	.	.	.
.	.	.	.	.	16f/	.	.	.	.	.	.	.	.	.	.	.	.	.	.	.
8An\J	.	.	8an\	.	16f/	.	.	.	.	.	.	.	.	.	.	.	.	.	.	.
.	.	.	.	.	16f/JJ	.	.	.	.	.	.	.	.	.	.	.	.	.	.	.
!	!	!	!	!	!LO:TX:t=P:problem=mixed beam	!	!	!	!	!	!	!	!	!	!	!	!	!	!	!
8r	.	.	8a\	.	16cc\LL	.	.	.	.	.	.	.	.	.	.	.	.	.	.	.
.	.	.	.	.	16f/	.	.	.	.	.	.	.	.	.	.	.	.	.	.	.
8A\	.	.	8cc\J	.	16ee-\	.	.	.	.	.	.	.	.	.	.	.	.	.	.	.
.	.	.	.	.	16f/JJ	.	.	.	.	.	.	.	.	.	.	.	.	.	.	.
=23	=23	=23	=23	=23	=23	=23	=23	=23	=23	=23	=23	=23	=23	=23	=23	=23	=23	=23	=23	=23
!	!	!	!	!	!	!	!	!	!	!	!	!	!	!	!LO:LB:g=original	!	!	!	!	!
8B-\L	.	.	8b-\L	.	16dd\LL	.	1ryy	4B-\	.	-is	4F/	-is	4b-\	-is	4dd\	-is	2B-/	.	4f\	.
.	.	.	.	.	16b-\	.	.	.	.	.	.	.	.	.	.	.	.	.	.	.
8d\J	6	.	8dd\	.	16b-\	.	.	.	.	.	.	.	.	.	.	.	.	.	.	.
.	.	.	.	.	16b-\JJ	.	.	.	.	.	.	.	.	.	.	.	.	.	.	.
!	!	!	!	!	!LO:TX:t=P:problem=mixed beam	!	!	!	!	!	!	!	!	!	!	!	!	!	!	!
8G\L	3	.	8b-\	.	16bb-\LL	.	.	8G\L	.	lu-	8B-\L	lu-	4b-\	lu-	8b-\L	lu-	.	.	4b-\	.
.	.	.	.	.	16b-/	.	.	.	.	.	.	.	.	.	.	.	.	.	.	.
8F\J	n	.	8b-\J	.	16aan\	.	.	8F\J	.	.	8An\J	.	.	.	8an\J	.	.	.	.	.
.	.	.	.	.	16b-/JJ	.	.	.	.	.	.	.	.	.	.	.	.	.	.	.
8E-\L	3	.	8b-\L	.	16gg\LL	.	.	8E-\	.	-ce-	8G/	-ce-	8b-\	-ce-	8g/	-ce-	2B-/	.	2b-\	.
.	.	.	.	.	16b-\	.	.	.	.	.	.	.	.	.	.	.	.	.	.	.
8D\J	3	.	8b-\	.	16ff\	.	.	8D\	.	-at	8F/	-at	8b-\	-at	8f/	-at	.	.	.	.
.	.	.	.	.	16b-\JJ	.	.	.	.	.	.	.	.	.	.	.	.	.	.	.
*	*	*	*	*	*	*	*	*	*	*	*	*ij	*	*	*	*	*	*	*	*
!	!	!	!	!	!LO:TX:t=P:problem=mixed beam	!	!	!	!	!	!	!	!	!	!	!	!	!	!	!
8G\L	3	.	8b-\	.	16bb-\LL	.	.	8G\L	.	lu-	8B-/L	lu-	4b-\	lu-	8b-\L	lu-	.	.	.	.
.	.	.	.	.	16b-/	.	.	.	.	.	.	.	.	.	.	.	.	.	.	.
8F\J	n	.	8b-\J	.	16aan\	.	.	8F\J	.	.	8An/J	.	.	.	8a\J	.	.	.	.	.
.	.	.	.	.	16b-/JJ	.	.	.	.	.	.	.	.	.	.	.	.	.	.	.
=24	=24	=24	=24	=24	=24	=24	=24	=24	=24	=24	=24	=24	=24	=24	=24	=24	=24	=24	=24	=24
*	*	*	*tremolo	*	*	*	*	*	*	*	*	*	*	*	*	*	*	*	*	*
!	!	!	!	!	!LO:LB:g=original	!	!	!	!	!	!	!	!LO:LB:g=original	!	!	!	!LO:LB:g=original	!	!	!
8E-\L	3	.	8b-\L	.	16gg\LL	.	1ryy	8E-\	.	-ce-	8G/	-ce-	8b-\	-ce-	8g/	-ce-	2B-/	.	2b-\	.
.	.	.	.	.	16b-\	.	.	.	.	.	.	.	.	.	.	.	.	.	.	.
8D\J	3	.	8b-\	.	16ff\	.	.	8D\	.	-at	8F/	-at	8b-\	-at	8f/	-at	.	.	.	.
.	.	.	.	.	16b-\JJ	.	.	.	.	.	.	.	.	.	.	.	.	.	.	.
*	*	*	*	*	*	*	*	*	*	*	*	*Xij	*	*	*	*ij	*	*	*	*
!	!	!	!	!	!LO:TX:t=P:problem=mixed beam	!	!	!	!	!	!	!	!	!	!	!	!	!	!	!
8G\L	3	.	8b-\	.	16bb-\LL	.	.	8G\L	.	lu-	8B-/L	lu-	4b-\	lu-	8b-\L	lu-	.	.	.	.
.	.	.	.	.	16b-/	.	.	.	.	.	.	.	.	.	.	.	.	.	.	.
8F\J	n	.	8b-\J	.	16aan\	.	.	8F\J	.	.	8An/J	.	.	.	8an\J	.	.	.	.	.
.	.	.	.	.	16b-/JJ	.	.	.	.	.	.	.	.	.	.	.	.	.	.	.
*	*	*	*Xtremolo	*	*	*	*	*	*	*	*	*	*	*	*	*	*	*	*	*
!LO:LB:g=original	!	!	!	!	!	!	!	!LO:LB:g=original	!	!	!	!	!	!	!	!	!	!	!	!
8E-\L	3	.	8b-\L	.	16gg\LL	.	.	8E-\	.	-ce-	8G/	-ce-	8b-\	-ce-	8g/	-ce-	4B-/	.	4b-\	.
.	.	.	.	.	16b-\	.	.	.	.	.	.	.	.	.	.	.	.	.	.	.
8D\J	3	.	8b-\	.	16ff\	.	.	8D\	.	-at	8F/	-at	8b-\	-at	8f/	-at	.	.	.	.
*	*	*	*	*	*	*	*	*	*	*	*	*	*	*	*	*Xij	*	*	*	*
.	.	.	.	.	16b-\JJ	.	.	.	.	.	.	.	.	.	.	.	.	.	.	.
!	!	!	!	!	!	!	!	!	!	!	!	!	!	!	!LO:TX:t=P:problem=mixed beam	!	!	!	!	!
8E-\	.	.	8b-\J	.	16gg\LL	.	.	4E-\	.	e-	8E-/L	e-	[4b-\	e-	8g/L	e-	8e-\	.	8g\	.
.	.	.	.	.	16bb-\	.	.	.	.	.	.	.	.	.	.	.	.	.	.	.
8r	.	.	8r	.	16gg\	.	.	.	.	.	8G/J	.	.	.	8ee-\J	.	8r	.	8r	.
.	.	.	.	.	16ee-\JJ	.	.	.	.	.	.	.	.	.	.	.	.	.	.	.
=25	=25	=25	=25	=25	=25	=25	=25	=25	=25	=25	=25	=25	=25	=25	=25	=25	=25	=25	=25	=25
!LO:TX:t=P:problem=mixed beam	!	!	!	!	!	!	!	!	!	!	!	!	!	!	!	!	!	!	!	!
!	!	!	!LO:LB:g=original	!	!	!	!	!	!	!	!LO:LB:g=original	!	!	!	!	!	!	!	!LO:LB:g=original	!
8F\L	6_ 4_	.	4b-/	.	4dd\	.	1ryy	4F\	.	.	2F/	.	4b-\]	.	4dd\	.	2f\	.	2f\	.
8F\	X X	.	.	.	.	.	.	.	.	.	.	.	.	.	.	.	.	.	.	.
8FF/	5_ n_	.	4an/	.	4ccT\	.	.	4FF/	.	.	.	.	4ant\	.	4ccT\	.	.	.	.	.
8FF/J	X X	.	.	.	.	.	.	.	.	.	.	.	.	.	.	.	.	.	.	.
!LO:TX:t=P:problem=mixed beam	!	!	!	!	!	!	!	!	!	!	!	!	!	!	!	!	!	!	!	!
8BB-/L	.	.	4b-\	.	(32b-\LLL	.	.	4BB-/	.	-is	4F/	-is	4b-\	-is	4dd\	-is	4B-/	.	4f\	.
.	.	.	.	.	32cc\	.	.	.	.	.	.	.	.	.	.	.	.	.	.	.
.	.	.	.	.	32dd\	.	.	.	.	.	.	.	.	.	.	.	.	.	.	.
.	.	.	.	.	32cc\J)	.	.	.	.	.	.	.	.	.	.	.	.	.	.	.
8B-\	.	.	.	.	16b-|>\	.	.	.	.	.	.	.	.	.	.	.	.	.	.	.
.	.	.	.	.	16b-|>\JJ	.	.	.	.	.	.	.	.	.	.	.	.	.	.	.
!	!	!	!	!	!LO:TX:t=P:problem=mixed beam	!	!	!	!	!	!	!	!	!	!	!	!	!	!	!
8G\	10	.	8b-\L	.	16bb-\LL	.	.	8G\L	.	lu-	8B-/L	lu-	4b-\	lu-	8b-\L	lu-	4B-/	.	4b-\	.
.	.	.	.	.	16b-/	.	.	.	.	.	.	.	.	.	.	.	.	.	.	.
8F\J	10	.	8b-\J	.	16aan\	.	.	8F\J	.	.	8An/J	.	.	.	8an\J	.	.	.	.	.
.	.	.	.	.	16b-/JJ	.	.	.	.	.	.	.	.	.	.	.	.	.	.	.
=26	=26	=26	=26	=26	=26	=26	=26	=26	=26	=26	=26	=26	=26	=26	=26	=26	=26	=26	=26	=26
8E-\L	10	.	8b-\L	.	16gg\LL	.	1ryy	8E-\	.	-ce-	8G/	-ce-	8b-\	-ce-	8g/	-ce-	2B-/	.	2b-\	.
.	.	.	.	.	16b-\	.	.	.	.	.	.	.	.	.	.	.	.	.	.	.
8D\	10	.	8b-\	.	16ff\	.	.	8D\	.	-at	8F/	-at	8b-\	-at	8f/	-at	.	.	.	.
.	.	.	.	.	16b-\JJ	.	.	.	.	.	.	.	.	.	.	.	.	.	.	.
*	*	*	*	*	*	*	*	*	*	*ij	*	*	*	*	*	*ij	*	*	*	*
!	!	!	!	!	!LO:TX:t=P:problem=mixed beam	!	!	!	!	!	!	!	!	!	!	!	!	!	!	!
8G\	10	.	8b-\	.	16bb-\LL	.	.	8G\L	.	lu-	8B-/L	lu-	4b-\	lu-	8b-\L	lu-	.	.	.	.
.	.	.	.	.	16b-/	.	.	.	.	.	.	.	.	.	.	.	.	.	.	.
8F\J	10	.	8b-\J	.	16aan\	.	.	8F\J	.	.	8An/J	.	.	.	8an\J	.	.	.	.	.
.	.	.	.	.	16b-/JJ	.	.	.	.	.	.	.	.	.	.	.	.	.	.	.
*	*	*	*tremolo	*	*	*	*	*	*	*	*	*	*	*	*	*	*	*	*	*
8E-\L	10	.	8b-\L	.	16gg\LL	.	.	8E-\	.	-ce-	8G/	-ce-	8b-\	-ce-	8g/	-ce-	2B-/	.	[2b-\	.
.	.	.	.	.	16b-\	.	.	.	.	.	.	.	.	.	.	.	.	.	.	.
8D\	10	.	8b-\	.	16ff\	.	.	8D\	.	-at	8F/	-at	8b-\	-at	8f/	-at	.	.	.	.
*	*	*	*	*	*	*	*	*	*	*Xij	*	*	*	*	*	*Xij	*	*	*	*
.	.	.	.	.	16b-\JJ	.	.	.	.	.	.	.	.	.	.	.	.	.	.	.
!	!	!	!	!	!LO:TX:t=P:problem=mixed beam	!	!	!	!	!	!	!	!	!	!	!	!	!	!	!
8G\	10	.	8b-\	.	16bb-\LL	.	.	8G\L	.	lu-	8B-/L	lu-	4b-\	lu-	8b-\L	lu-	.	.	.	.
.	.	.	.	.	16b-/	.	.	.	.	.	.	.	.	.	.	.	.	.	.	.
8F\J	10	.	8b-\J	.	16aa\	.	.	8F\J	.	.	8A/J	.	.	.	8a\J	.	.	.	.	.
.	.	.	.	.	16b-/JJ	.	.	.	.	.	.	.	.	.	.	.	.	.	.	.
*	*	*	*Xtremolo	*	*	*	*	*	*	*	*	*	*	*	*	*	*	*	*	*
=27	=27	=27	=27	=27	=27	=27	=27	=27	=27	=27	=27	=27	=27	=27	=27	=27	=27	=27	=27	=27
!	!	!	!	!	!	!	!	!	!	!	!	!	!	!	!LO:LB:g=original	!	!	!	!	!
8E-\L	10	.	8b-\L	.	16gg\LL	.	1ryy	8E-\	.	-ce-	8G/	-ce-	8b-\	-ce-	8g/	-ce-	4B-/	.	4b-\]	.
.	.	.	.	.	16b-\	.	.	.	.	.	.	.	.	.	.	.	.	.	.	.
8D\	10	.	8b-\	.	16ff\	.	.	8D\	.	-at	8F/	-at	8b-\	-at	8f/	-at	.	.	.	.
.	.	.	.	.	16b-\JJ	.	.	.	.	.	.	.	.	.	.	.	.	.	.	.
!	!	!	!	!	!	!	!	!	!	!	!	!	!	!	!LO:TX:t=P:problem=mixed beam	!	!	!	!	!
8E-\J	5	.	8b-\J	.	16gg\LL	.	.	4E-\	.	e-	8E-/L	e-	[4b-\	e-	8g/L	e-	8e-\	.	8g\	.
.	.	.	.	.	16bb-\	.	.	.	.	.	.	.	.	.	.	.	.	.	.	.
8r	.	.	8r	.	32aan\L	.	.	.	.	.	8G/J	.	.	.	8ee-\J	.	8r	.	8r	.
.	.	.	.	.	32gg\	.	.	.	.	.	.	.	.	.	.	.	.	.	.	.
.	.	.	.	.	32ff\	.	.	.	.	.	.	.	.	.	.	.	.	.	.	.
.	.	.	.	.	32ee-\JJJ	.	.	.	.	.	.	.	.	.	.	.	.	.	.	.
!LO:TX:t=P:problem=mixed beam	!	!	!	!	!	!	!	!	!	!	!	!	!	!	!	!	!	!	!	!
8F\L	6_ 4_	.	8b-\L	.	8dd\L	.	.	2F\	.	.	2F/	.	4b-\]	.	4dd\	.	2f\	.	2f\	.
8F\	X X	.	8b-\	.	8dd\	.	.	.	.	.	.	.	.	.	.	.	.	.	.	.
8FF/	5_ n_	.	8an\	.	8cc\	.	.	.	.	.	.	.	4ant\	.	4ccT\	.	.	.	.	.
8FF/J	X X	.	8a\J	.	8cc\J	.	.	.	.	.	.	.	.	.	.	.	.	.	.	.
=28	=28	=28	=28	=28	=28	=28	=28	=28	=28	=28	=28	=28	=28	=28	=28	=28	=28	=28	=28	=28
*	*	*	*	*	*	*	*	*	*	*	*	*^	*	*	*	*	*	*	*	*
!	!	!	!	!	!	!	!	!	!	!	!	!	!	!LO:LB:g=original	!	!	!	!	!	!	!
8BB-/	.	.	16b-'/LL	.	16r	.	1ryy	4BB-/	.	-is	8D/	-is	[[luce]]	8b-\	-is	4b-\	-is,	4B-/	.	4f\	.
.	.	.	16d'/	.	16b-|>\LL	.	.	.	.	.	.	.	.	.	.	.	.	.	.	.	.
8r	.	.	16d'/	.	16b-|>\	.	.	.	.	.	8F/	e-	.	8d\	e-	.	.	.	.	.	.
.	.	.	16d'/JJ	.	16b-|>\JJ	.	.	.	.	.	.	.	.	.	.	.	.	.	.	.	.
8D\	6 5-	.	16r	.	16r	.	.	4D\	.	lu-	4B-\	.	.	4f\	.	4a-X\	e-	4B-/	.	4a-\	.
.	.	.	16f'/LL	.	16a-X|>\LL	.	.	.	.	.	.	.	.	.	.	.	.	.	.	.	.
8r	.	.	16f'/	.	16a-|>\	.	.	.	.	.	.	.	.	.	.	.	.	.	.	.	.
.	.	.	16f'/JJ	.	16a-|>\JJ	.	.	.	.	.	.	.	.	.	.	.	.	.	.	.	.
!	!	!	!	!	!LO:LB:g=original	!	!	!	!	!	!	!	!	!	!	!	!	!	!	!	!
8E-\	.	.	16r	.	16r	.	.	4E-\	.	-ce-	4B-\	.	.	2e-\	.	4g\	.	4e-\	.	4g\	.
.	.	.	16e-'/LL	.	16g'/LL	.	.	.	.	.	.	.	.	.	.	.	.	.	.	.	.
8r	.	.	16e-'/	.	16g'/	.	.	.	.	.	.	.	.	.	.	.	.	.	.	.	.
.	.	.	16e-'/JJ	.	16g'/JJ	.	.	.	.	.	.	.	.	.	.	.	.	.	.	.	.
8C/	6n	.	16r	.	16r	.	.	4C/	.	-at	4c\	.	.	.	.	4an\	.	4r	.	4r	.
.	.	.	16e-'/LL	.	16an'/LL	.	.	.	.	.	.	.	.	.	.	.	.	.	.	.	.
8r	.	.	16e-'/	.	16a'/	.	.	.	.	.	.	.	.	.	.	.	.	.	.	.	.
.	.	.	16e-'/JJ	.	16a'/JJ	.	.	.	.	.	.	.	.	.	.	.	.	.	.	.	.
*	*	*	*	*	*	*	*	*	*	*	*	*v	*v	*	*	*	*	*	*	*	*
=29	=29	=29	=29	=29	=29	=29	=29	=29	=29	=29	=29	=29	=29	=29	=29	=29	=29	=29	=29	=29
8BB-/	.	.	16r	.	16r	.	1ryy	4BB-/	.	e-	4d\	.	4d\	-is	4b-\	.	4B-/	.	4f\	.
.	.	.	16d'/LL	.	16b-'/LL	.	.	.	.	.	.	.	.	.	.	.	.	.	.	.
8r	.	.	16d'/	.	16b-'/	.	.	.	.	.	.	.	.	.	.	.	.	.	.	.
.	.	.	16d'/JJ	.	16b-'/JJ	.	.	.	.	.	.	.	.	.	.	.	.	.	.	.
8D\	6 5-	.	16r	.	16r	.	.	4D\	.	.	[4B-\	.	4f\	e-	4a-X\	.	4B-/	.	4a-\	.
.	.	.	16f'/LL	.	16a-X'/LL	.	.	.	.	.	.	.	.	.	.	.	.	.	.	.
8r	.	.	16f'/	.	16a-'/	.	.	.	.	.	.	.	.	.	.	.	.	.	.	.
.	.	.	16f'/JJ	.	16a-'/JJ	.	.	.	.	.	.	.	.	.	.	.	.	.	.	.
!	!	!	!LO:LB:g=original	!	!	!	!	!LO:LB:g=original	!	!	!	!	!	!	!	!	!	!	!	!
8E-\	.	.	16e-'/LL	.	16g/LL	.	.	8E-\	.	-is	8B-\L]	.	8e-\L	.	8g\L	.	8e-\	.	8g\	.
.	.	.	16g'/	.	16b-/	.	.	.	.	.	.	.	.	.	.	.	.	.	.	.
8r	.	.	16e-'/	.	16g/	.	.	8r	.	.	8c\J	.	8g\J	.	8ee-\J	.	8r	.	8r	.
.	.	.	16c'/JJ	.	16e-/JJ	.	.	.	.	.	.	.	.	.	.	.	.	.	.	.
!LO:TX:t=P:problem=mixed beam	!	!	!	!	!	!	!	!LO:TX:t=P:problem=mixed beam	!	!	!	!	!	!	!	!	!	!	!	!
8F\L	6 4	.	8B-/L	.	8d/L	.	.	8F\L	.	e-	8B-\L	.	4f\	.	8dd\L	.	4f\	.	4f\	.
8FF/J	5 n	.	8An/J	.	8c/J	.	.	8FF/J	.	.	8An\J	.	.	.	8cc\J	.	.	.	.	.
=30	=30	=30	=30	=30	=30	=30	=30	=30	=30	=30	=30	=30	=30	=30	=30	=30	=30	=30	=30	=30
!	!	!	!LO:TX:t=P:problem=mixed beam	!	!LO:TX:t=P:problem=mixed beam	!	!	!	!	!	!	!	!	!	!	!	!	!	!	!
!	!	!	!	!	!	!	!	!	!	!	!LO:LB:g=original	!	!	!	!	!	!	!	!	!
8BB-/	.	.	16B-/LL	.	16B-/LL	.	1ryy	4BB-/	.	-is	8B-\	-is	4d\	-is	4b-\	-is,	4B-/	.	4f\	.
.	.	.	16dd'\	.	16bb-|>\	.	.	.	.	.	.	.	.	.	.	.	.	.	.	.
8r	.	.	16dd'\	.	16bb-|>\	.	.	.	.	.	8f\	lu-	.	.	.	.	.	.	.	.
.	.	.	16dd'\JJ	.	16bb-|>\JJ	.	.	.	.	.	.	.	.	.	.	.	.	.	.	.
8d\	6 5-	.	16r	.	16r	.	.	4d\	.	lu-	8f\	-ce-	2b-\	lu-	4aa-X\	e-	4B-/	.	4a-\	.
.	.	.	16ff'\LL	.	16aa-X'\LL	.	.	.	.	.	.	.	.	.	.	.	.	.	.	.
8r	.	.	16ff'\	.	16aa-'\	.	.	.	.	.	8f\	-at	.	.	.	.	.	.	.	.
.	.	.	16ff'\JJ	.	16aa-'\JJ	.	.	.	.	.	.	.	.	.	.	.	.	.	.	.
8e-\	.	.	16r	.	16r	.	.	4e-\	.	-ce-	2e-\	e-	.	.	4gg\	.	4e-\	.	4g\	.
.	.	.	16ee-'\LL	.	16gg'\LL	.	.	.	.	.	.	.	.	.	.	.	.	.	.	.
8r	.	.	16ee-'\	.	16gg'\	.	.	.	.	.	.	.	.	.	.	.	.	.	.	.
.	.	.	16ee-'\JJ	.	16gg'\JJ	.	.	.	.	.	.	.	.	.	.	.	.	.	.	.
8c\	6n	.	16r	.	16r	.	.	4c\	.	-at	.	.	4cc\	.	4aan\	.	4r	.	4r	.
.	.	.	16ee-'\LL	.	16aan'\LL	.	.	.	.	.	.	.	.	.	.	.	.	.	.	.
8r	.	.	16ee-'\	.	16aa'\	.	.	.	.	.	.	.	.	.	.	.	.	.	.	.
.	.	.	16ee-'\JJ	.	16aa'\JJ	.	.	.	.	.	.	.	.	.	.	.	.	.	.	.
=31	=31	=31	=31	=31	=31	=31	=31	=31	=31	=31	=31	=31	=31	=31	=31	=31	=31	=31	=31	=31
!	!	!	!	!	!	!	!	!	!	!	!	!	!	!	!	!	!LO:LB:g=original	!	!	!
8B-\	.	.	16r	.	16r	.	1ryy	4B-\	.	e-	4d\	-is	4dd\	-ce-	4bb-\	.	4B-/	.	4f\	.
.	.	.	16dd'\LL	.	16bb-'\LL	.	.	.	.	.	.	.	.	.	.	.	.	.	.	.
8r	.	.	16dd'\	.	16bb-'\	.	.	.	.	.	.	.	.	.	.	.	.	.	.	.
.	.	.	16dd'\JJ	.	16bb-'\JJ	.	.	.	.	.	.	.	.	.	.	.	.	.	.	.
8d\	6 5-	.	16r	.	16r	.	.	4d\	.	-is	4f\	e-	[4b-\	-at	4aa-X\	.	4B-/	.	4a-\	.
.	.	.	16ff'\LL	.	16aa-X'\LL	.	.	.	.	.	.	.	.	.	.	.	.	.	.	.
8r	.	.	16ff'\	.	16aa-'\	.	.	.	.	.	.	.	.	.	.	.	.	.	.	.
.	.	.	16ff'\JJ	.	16aa-'\JJ	.	.	.	.	.	.	.	.	.	.	.	.	.	.	.
8e-\	5	.	16ee-'\LL	.	16gg\LL	.	.	4e-\	.	e-	8e-\L	.	8b-\L]	.	8gg\L	.	8e-\	.	8g\	.
.	.	.	16gg'\	.	16bb-\	.	.	.	.	.	.	.	.	.	.	.	.	.	.	.
8r	.	.	16ee-'\	.	16gg\	.	.	.	.	.	8g\J	.	8cc\J	e-	8ee-\J	.	8r	.	8r	.
.	.	.	16cc'\JJ	.	16ee-\JJ	.	.	.	.	.	.	.	.	.	.	.	.	.	.	.
!	!	!	!	!	!	!	!	!LO:TX:t=P:problem=mixed beam	!	!	!	!	!	!	!	!	!	!	!	!
!	!	!	!	!	!	!	!	!	!	!	!	!	!	!	!	!	!	!	!	!LO:DY:b:t=pia.
8f\L	6 4	.	8b-/L	.	8dd\L	.	.	8f\L	.	.	4f\	.	8b-\L	.	8dd\L	.	8f\L	.	4f\	p
8F\J	5 n	.	8an/J	.	8ccT\J	.	.	8F/J	.	.	.	.	8an\J	.	8cc\J	.	8f\J	.	.	.
=32	=32	=32	=32	=32	=32	=32	=32	=32	=32	=32	=32	=32	=32	=32	=32	=32	=32	=32	=32	=32
*	*	*	*tremolo	*	*	*	*	*	*	*	*	*	*	*	*	*	*	*	*	*
!LO:TX:t=P:p = piano.:problem	!	!	!	!	!	!	!	!	!	!	!	!	!	!	!	!	!	!	!	!
!	!	!	!	!	!	!	!	!	!	!	!	!	!	!	!	!	!	!LO:DY:b:t=pia.	!	!
!	!	!	!	!	!	!LO:DY:b:t=piano	!	!	!	!	!	!	!	!	!	!	!	!	!	!
8B-\L	5_	p	8d 8B-/L	.	(16f/LL	p	1ryy	4B-\	.	-is.	4f\	-is.	4b-\	-is.	4dd\	-is.	2B-/	p	2f\	.
.	.	.	.	.	16b-/	.	.	.	.	.	.	.	.	.	.	.	.	.	.	.
8B-\	x	.	8d 8B-/	.	16dd/	.	.	.	.	.	.	.	.	.	.	.	.	.	.	.
.	.	.	.	.	16b-/JJ)	.	.	.	.	.	.	.	.	.	.	.	.	.	.	.
8B-\	x	.	8d 8B-/	.	(16f/LL	.	.	4r	.	.	4r	.	4r	.	4r	.	.	.	.	.
.	.	.	.	.	16b-/	.	.	.	.	.	.	.	.	.	.	.	.	.	.	.
8B-\J	X	.	8d 8B-/J	.	16dd/	.	.	.	.	.	.	.	.	.	.	.	.	.	.	.
.	.	.	.	.	16b-/JJ)	.	.	.	.	.	.	.	.	.	.	.	.	.	.	.
*tremolo	*	*	*	*	*	*	*	*	*	*	*	*	*	*	*	*	*	*	*	*
!	!	!	!	!	!LO:TX:t=P:problem=mixed beam	!	!	!	!	!	!	!	!	!	!	!	!	!	!	!
8An\L	6 5	.	8e- 8c/L	.	(16f/LL	.	.	2r	.	.	2r	.	2r	.	2r	.	2f\	.	2f\	.
.	.	.	.	.	16cc\	.	.	.	.	.	.	.	.	.	.	.	.	.	.	.
8An\	.	.	8e- 8c/	.	16ee-\	.	.	.	.	.	.	.	.	.	.	.	.	.	.	.
.	.	.	.	.	16cc\JJ)	.	.	.	.	.	.	.	.	.	.	.	.	.	.	.
!	!	!	!	!	!LO:TX:t=P:problem=mixed beam	!	!	!	!	!	!	!	!	!	!	!	!	!	!	!
8An\	.	.	8e- 8c/	.	(16f/LL	.	.	.	.	.	.	.	.	.	.	.	.	.	.	.
.	.	.	.	.	16cc\	.	.	.	.	.	.	.	.	.	.	.	.	.	.	.
8An\J	.	.	8e- 8c/J	.	16ee-\	.	.	.	.	.	.	.	.	.	.	.	.	.	.	.
.	.	.	.	.	16cc\JJ)	.	.	.	.	.	.	.	.	.	.	.	.	.	.	.
=33	=33	=33	=33	=33	=33	=33	=33	=33	=33	=33	=33	=33	=33	=33	=33	=33	=33	=33	=33	=33
!	!	!	!	!	!	!	!	!	!	!	!	!	!	!	!LO:LB:g=original	!	!	!	!	!
8B-\L	.	.	8d 8B-/L	.	(16f/LL	.	1ryy	1r	.	.	1r	.	1r	.	1r	.	2B-/	.	2f\	.
.	.	.	.	.	16b-/	.	.	.	.	.	.	.	.	.	.	.	.	.	.	.
8B-\	.	.	8d 8B-/	.	16dd/	.	.	.	.	.	.	.	.	.	.	.	.	.	.	.
.	.	.	.	.	16b-/JJ)	.	.	.	.	.	.	.	.	.	.	.	.	.	.	.
8B-\	.	.	8d 8B-/	.	(16f/LL	.	.	.	.	.	.	.	.	.	.	.	.	.	.	.
.	.	.	.	.	16b-/	.	.	.	.	.	.	.	.	.	.	.	.	.	.	.
8B-\J	.	.	8d 8B-/J	.	16dd/	.	.	.	.	.	.	.	.	.	.	.	.	.	.	.
.	.	.	.	.	16b-/JJ)	.	.	.	.	.	.	.	.	.	.	.	.	.	.	.
.	.	.	.	.	8qqdd/	.	.	.	.	.	.	.	.	.	.	.	.	.	.	.
*Xtremolo	*	*	*	*	*	*	*	*	*	*	*	*	*	*	*	*	*	*	*	*
4F\	n	.	4f 4An/	.	8cc\L	.	.	.	.	.	.	.	.	.	.	.	4f\	.	4f\	.
.	.	.	.	.	8qqb-/	.	.	.	.	.	.	.	.	.	.	.	.	.	.	.
.	.	.	.	.	8an\J	.	.	.	.	.	.	.	.	.	.	.	.	.	.	.
!	!	!	!	!	!LO:TX:t=P:problem=mixed beam	!	!	!	!	!	!	!	!	!	!	!	!	!	!	!
!	!	!	!	!	!	!LO:DY:b:t=piano	!	!	!	!	!	!	!	!	!	!	!	!	!	!
4r	.	.	4r	.	16g/LL	p	.	.	.	.	.	.	.	.	.	.	4r	.	4r	.
.	.	.	.	.	16f/	.	.	.	.	.	.	.	.	.	.	.	.	.	.	.
.	.	.	.	.	16ff\	.	.	.	.	.	.	.	.	.	.	.	.	.	.	.
.	.	.	.	.	16a/JJ	.	.	.	.	.	.	.	.	.	.	.	.	.	.	.
=34	=34	=34	=34	=34	=34	=34	=34	=34	=34	=34	=34	=34	=34	=34	=34	=34	=34	=34	=34	=34
*tremolo	*	*	*	*	*	*	*	*	*	*	*	*	*	*	*	*	*	*	*	*
!	!	!	!LO:LB:g=original	!	!	!	!	!	!	!	!	!	!	!	!	!	!	!	!LO:LB:g=original	!
8B-\L	.	.	8d 8B-/L	.	16f/LL	.	1ryy	1r	.	.	1r	.	1r	.	1r	.	2B-/	.	2f\	.
.	.	.	.	.	(16b-/	.	.	.	.	.	.	.	.	.	.	.	.	.	.	.
8B-\	.	.	8d 8B-/	.	16dd/	.	.	.	.	.	.	.	.	.	.	.	.	.	.	.
.	.	.	.	.	16b-/JJ)	.	.	.	.	.	.	.	.	.	.	.	.	.	.	.
8B-\	.	.	8d 8B-/	.	(16f/LL	.	.	.	.	.	.	.	.	.	.	.	.	.	.	.
.	.	.	.	.	16b-/	.	.	.	.	.	.	.	.	.	.	.	.	.	.	.
8B-\J	.	.	8d 8B-/J	.	16dd/	.	.	.	.	.	.	.	.	.	.	.	.	.	.	.
.	.	.	.	.	16b-/JJ)	.	.	.	.	.	.	.	.	.	.	.	.	.	.	.
!LO:LB:g=original	!	!	!	!	!LO:TX:t=P:problem=mixed beam	!	!	!	!	!	!	!	!	!	!	!	!	!	!	!
8An\L	6 5	.	8e- 8c/L	.	16f/LL	.	.	.	.	.	.	.	.	.	.	.	2f\	.	2f\	.
.	.	.	.	.	16cc\	.	.	.	.	.	.	.	.	.	.	.	.	.	.	.
8An\	.	.	8e- 8c/	.	16ee-\	.	.	.	.	.	.	.	.	.	.	.	.	.	.	.
.	.	.	.	.	16cc\JJ	.	.	.	.	.	.	.	.	.	.	.	.	.	.	.
!	!	!	!	!	!LO:TX:t=P:problem=mixed beam	!	!	!	!	!	!	!	!	!	!	!	!	!	!	!
8An\	.	.	8e- 8c/	.	16f/LL	.	.	.	.	.	.	.	.	.	.	.	.	.	.	.
.	.	.	.	.	16cc\	.	.	.	.	.	.	.	.	.	.	.	.	.	.	.
8An\J	.	.	8e- 8c/J	.	16ee-\	.	.	.	.	.	.	.	.	.	.	.	.	.	.	.
.	.	.	.	.	16cc\JJ	.	.	.	.	.	.	.	.	.	.	.	.	.	.	.
*Xtremolo	*	*	*Xtremolo	*	*	*	*	*	*	*	*	*	*	*	*	*	*	*	*	*
=35	=35	=35	=35	=35	=35	=35	=35	=35	=35	=35	=35	=35	=35	=35	=35	=35	=35	=35	=35	=35
!	!	!	!	!	!	!	!	!	!	!	!	!	!	!	!	!	!LO:TX:t=P:problem=mixed beam	!	!	!
8B-\L	5_	.	8dL 8B-/	.	16dd\LL	.	1ryy	1r	.	.	1r	.	1r	.	1r	.	8B-/L	.	4f\	.
.	.	.	.	.	16ff\JJ	.	.	.	.	.	.	.	.	.	.	.	.	.	.	.
8c\J	x 6	.	8f/	.	32ff\LLL	.	.	.	.	.	.	.	.	.	.	.	8f\J	.	.	.
.	.	.	.	.	32ee-\	.	.	.	.	.	.	.	.	.	.	.	.	.	.	.
.	.	.	.	.	32cc\	.	.	.	.	.	.	.	.	.	.	.	.	.	.	.
.	.	.	.	.	32an\JJJ	.	.	.	.	.	.	.	.	.	.	.	.	.	.	.
!	!	!	!	!	!	!	!	!	!	!	!	!	!	!	!	!	!LO:TX:t=P:problem=mixed beam	!	!	!
8d\L	x 6	.	8f/	.	16b-\LL	.	.	.	.	.	.	.	.	.	.	.	8B-/L	.	4f\	.
.	.	.	.	.	16f\	.	.	.	.	.	.	.	.	.	.	.	.	.	.	.
8An\J	x 5	.	8f/J	.	16cc\	.	.	.	.	.	.	.	.	.	.	.	8f\J	.	.	.
.	.	.	.	.	16ee-\JJ	.	.	.	.	.	.	.	.	.	.	.	.	.	.	.
*	*	*	*tremolo	*	*	*	*	*	*	*	*	*	*	*	*	*	*	*	*	*
!	!	!	!	!	!	!	!	!	!	!	!	!	!	!	!	!	!LO:TX:t=P:problem=mixed beam	!	!	!
8B-\L	x	.	8f/L	.	16dd\LL	.	.	.	.	.	.	.	.	.	.	.	8B-/L	.	4f\	.
.	.	.	.	.	16ff\JJ	.	.	.	.	.	.	.	.	.	.	.	.	.	.	.
8c\	x 6	.	8f/	.	32ff\LLL	.	.	.	.	.	.	.	.	.	.	.	8f\J	.	.	.
.	.	.	.	.	32ee-\	.	.	.	.	.	.	.	.	.	.	.	.	.	.	.
.	.	.	.	.	32cc\	.	.	.	.	.	.	.	.	.	.	.	.	.	.	.
.	.	.	.	.	32a\JJJ	.	.	.	.	.	.	.	.	.	.	.	.	.	.	.
8d\	x 6	.	8f/	.	16b-\LL	.	.	.	.	.	.	.	.	.	.	.	8B-/	.	8f\	.
.	.	.	.	.	16f\	.	.	.	.	.	.	.	.	.	.	.	.	.	.	.
8A\J	X	.	8f/J	.	16cc\	.	.	.	.	.	.	.	.	.	.	.	8r	.	8r	.
.	.	.	.	.	16ee-\JJ	.	.	.	.	.	.	.	.	.	.	.	.	.	.	.
*	*	*	*Xtremolo	*	*	*	*	*	*	*	*	*	*	*	*	*	*	*	*	*
=36	=36	=36	=36	=36	=36	=36	=36	=36	=36	=36	=36	=36	=36	=36	=36	=36	=36	=36	=36	=36
8.B-\L	3 5#	.	8.dd\L	.	16dd\LL	.	1ryy	1r	.	.	1r	.	1r	.	1r	.	1r	.	1r	.
.	.	.	.	.	16ff#X\J	.	.	.	.	.	.	.	.	.	.	.	.	.	.	.
.	6	.	.	.	(8.gg\J	.	.	.	.	.	.	.	.	.	.	.	.	.	.	.
16B-\Jk	.	.	16dd\Jk	.	.	.	.	.	.	.	.	.	.	.	.	.	.	.	.	.
8.An\L	7 5n	.	8.cc\L	.	.	.	.	.	.	.	.	.	.	.	.	.	.	.	.	.
.	.	.	.	.	16een\KL)	.	.	.	.	.	.	.	.	.	.	.	.	.	.	.
.	6	.	.	.	(8.ffn\J	.	.	.	.	.	.	.	.	.	.	.	.	.	.	.
16A\Jk	.	.	16cc\Jk	.	.	.	.	.	.	.	.	.	.	.	.	.	.	.	.	.
8.G\L	7 5	.	8.b-/L	.	.	.	.	.	.	.	.	.	.	.	.	.	.	.	.	.
.	.	.	.	.	16dd\KL)	.	.	.	.	.	.	.	.	.	.	.	.	.	.	.
.	-6	.	.	.	(8.ee-X\J	.	.	.	.	.	.	.	.	.	.	.	.	.	.	.
16G\Jk	.	.	16b-/Jk	.	.	.	.	.	.	.	.	.	.	.	.	.	.	.	.	.
8.F\L	7 5#	.	8.an/L	.	.	.	.	.	.	.	.	.	.	.	.	.	.	.	.	.
.	.	.	.	.	16cc#\KL)	.	.	.	.	.	.	.	.	.	.	.	.	.	.	.
!	!	!	!	!	!LO:TX:t=P:problem=nuta z kropką przez kreskę	!	!	!	!	!	!	!	!	!	!	!	!	!	!	!
.	6	.	.	.	(8.dd\J	.	.	.	.	.	.	.	.	.	.	.	.	.	.	.
16F\Jk	.	.	16a/Jk	.	.	.	.	.	.	.	.	.	.	.	.	.	.	.	.	.
=37	=37	=37	=37	=37	=37	=37	=37	=37	=37	=37	=37	=37	=37	=37	=37	=37	=37	=37	=37	=37
8.E-\L	7 5n	.	8.g/L	.	.	.	1ryy	1r	.	.	1r	.	1r	.	1r	.	1r	.	1r	.
.	.	.	.	.	16bn\KL)	.	.	.	.	.	.	.	.	.	.	.	.	.	.	.
.	6	.	.	.	8.ccn\J	.	.	.	.	.	.	.	.	.	.	.	.	.	.	.
16E-\Jk	.	.	16g/Jk	.	.	.	.	.	.	.	.	.	.	.	.	.	.	.	.	.
8.D\L	7 5	.	8.f/L	.	.	.	.	.	.	.	.	.	.	.	.	.	.	.	.	.
.	.	.	.	.	16an\LL	.	.	.	.	.	.	.	.	.	.	.	.	.	.	.
.	6	.	.	.	16b-X\	.	.	.	.	.	.	.	.	.	.	.	.	.	.	.
16BB-\Jk	.	.	16d/Jk	.	16f\JJ	.	.	.	.	.	.	.	.	.	.	.	.	.	.	.
8C/L	9 4	.	16d/LL	.	(16f/LL	.	.	.	.	.	.	.	.	.	.	.	.	.	.	.
.	8_ 3_	.	16c/JJ	.	16e-/JJ)	.	.	.	.	.	.	.	.	.	.	.	.	.	.	.
8AAn/	.	.	16r	.	16r	.	.	.	.	.	.	.	.	.	.	.	.	.	.	.
.	.	.	16c/	.	16e-|</	.	.	.	.	.	.	.	.	.	.	.	.	.	.	.
8BB-/	9 4	.	16c/LL	.	(16e-/LL	.	.	.	.	.	.	.	.	.	.	.	.	.	.	.
.	8_ 3_	.	16B-/JJ	.	16d/JJ)	.	.	.	.	.	.	.	.	.	.	.	.	.	.	.
8En/J	7 5	.	16r	.	16r	.	.	.	.	.	.	.	.	.	.	.	.	.	.	.
.	.	.	16B-/	.	16d|</	.	.	.	.	.	.	.	.	.	.	.	.	.	.	.
=38	=38	=38	=38	=38	=38	=38	=38	=38	=38	=38	=38	=38	=38	=38	=38	=38	=38	=38	=38	=38
!LO:LB:g=original	!	!	!	!	!	!	!	!	!	!	!	!	!	!	!LO:TX:i:t=1/2	!	!	!	!	!
8F|>\L	.	.	8B-T/L	.	8dt/L	.	1ryy	2r	.	.	2r	.	2r	.	2r	.	8f\L	.	8f\L	.
16F|>\L	.	.	16An/L	.	8c/J	.	.	.	.	.	.	.	.	.	.	.	8f\J	.	8f\J	.
16d\JJ	3	.	16f/JJ	.	.	.	.	.	.	.	.	.	.	.	.	.	.	.	.	.
16d\LL	3	.	16f/LL	.	4r	.	.	.	.	.	.	.	.	.	.	.	4r	.	4r	.
16c\	3	.	16e-/	.	.	.	.	.	.	.	.	.	.	.	.	.	.	.	.	.
16B-\	3	.	16d/	.	.	.	.	.	.	.	.	.	.	.	.	.	.	.	.	.
16c\JJ	3	.	16e-/JJ	.	.	.	.	.	.	.	.	.	.	.	.	.	.	.	.	.
*tremolo	*	*	*tremolo	*	*	*	*	*	*	*	*	*	*	*	*	*	*	*	*	*
!	!	!	!LO:LB:g=original	!	!	!	!	!	!	!	!	!	!	!	!	!	!	!	!	!
!	!	!	!	!	!	!	!	!	!	!	!	!	!	!	!	!	!	!	!LO:TX:t=P:f = for:problem	!
!LO:TX:a:i:t=Tutti	!	!	!LO:TX:a:i:t=Tutti	!	!LO:TX:a:i:t=Tutti	!	!	!	!	!	!	!	!	!	!	!	!LO:TX:a:i:t=Tutti	!	!LO:TX:a:i:t=Tutti	!
!	!	!	!	!LO:DY:b:t=fot.	!	!	!	!	!	!	!	!	!	!	!	!	!	!	!	!
8B-\L	5	.	8d 8B-/L	f	(16f\LL	f	.	4B-\	.	Te	4B-\	Te	4f\	Te	4dd\	Te	2B-/	.	2f\	f
.	.	.	.	.	16b-\	.	.	.	.	.	.	.	.	.	.	.	.	.	.	.
8B-\	.	.	8d 8B-/	.	16dd\	.	.	.	.	.	.	.	.	.	.	.	.	.	.	.
.	.	.	.	.	16b-\JJ)	.	.	.	.	.	.	.	.	.	.	.	.	.	.	.
8B-\	.	.	8d 8B-/	.	(16f\LL	.	.	8B-\	.	de-	8B-\	de-	8f\	de-	8dd\	de-	.	.	.	.
.	.	.	.	.	16b-\	.	.	.	.	.	.	.	.	.	.	.	.	.	.	.
8B-\J	.	.	8d 8B-/J	.	16dd\	.	.	8B-\	.	-cet	8B-\	-cet	8f\	-cet	8dd\	-cet	.	.	.	.
.	.	.	.	.	16b-\JJ)	.	.	.	.	.	.	.	.	.	.	.	.	.	.	.
=39	=39	=39	=39	=39	=39	=39	=39	=39	=39	=39	=39	=39	=39	=39	=39	=39	=39	=39	=39	=39
!	!	!	!	!	!	!	!	!	!	!	!	!	!LO:LB:g=original	!	!	!	!	!	!	!
8An\L	6 5	.	8e- 8c/L	.	(16f\LL	.	1ryy	4An\	.	hym-	4c\	hym-	4f\	hym-	4ee-\	hym-	2f\	.	2f\	.
.	.	.	.	.	16cc\	.	.	.	.	.	.	.	.	.	.	.	.	.	.	.
8An\	.	.	8e- 8c/	.	16ee-\	.	.	.	.	.	.	.	.	.	.	.	.	.	.	.
.	.	.	.	.	16cc\JJ)	.	.	.	.	.	.	.	.	.	.	.	.	.	.	.
8An\	.	.	8e- 8c/	.	(16f\LL	.	.	4A\	.	-nus	4c\	-nus	4f\	-nus	4ee-\	-nus	.	.	.	.
.	.	.	.	.	16cc\	.	.	.	.	.	.	.	.	.	.	.	.	.	.	.
8An\J	.	.	8e- 8c/J	.	16ee-\	.	.	.	.	.	.	.	.	.	.	.	.	.	.	.
.	.	.	.	.	16cc\JJ)	.	.	.	.	.	.	.	.	.	.	.	.	.	.	.
8B-\L	5	.	8d 8B-/L	.	(16f\LL	.	.	4B-\	.	De-	4B-\	De-	4f\	De-	4dd\	De-	2B-/	.	2f\	.
.	.	.	.	.	16b-\	.	.	.	.	.	.	.	.	.	.	.	.	.	.	.
8B-\	.	.	8d 8B-/	.	16dd\	.	.	.	.	.	.	.	.	.	.	.	.	.	.	.
.	.	.	.	.	16b-\JJ)	.	.	.	.	.	.	.	.	.	.	.	.	.	.	.
8B-\	.	.	8d 8B-/	.	(16f\LL	.	.	8B-\	.	-us	8B-\	-us	8f\	-us	8dd\	-us	.	.	.	.
.	.	.	.	.	16b-\	.	.	.	.	.	.	.	.	.	.	.	.	.	.	.
8B-\J	.	.	8d 8B-/J	.	16dd\	.	.	8B-\	.	in	8B-\	in	8f\	in	8dd\	in	.	.	.	.
.	.	.	.	.	16b-\JJ)	.	.	.	.	.	.	.	.	.	.	.	.	.	.	.
=40	=40	=40	=40	=40	=40	=40	=40	=40	=40	=40	=40	=40	=40	=40	=40	=40	=40	=40	=40	=40
!	!	!	!	!	!LO:LB:g=original	!	!	!LO:LB:g=original	!	!	!LO:LB:g=original	!	!	!	!	!	!LO:LB:g=original	!	!	!
.	.	.	.	.	8qqdd/	.	.	.	.	.	.	.	.	.	.	.	.	.	.	.
4F\	.	.	4f 4An/	.	8cc\L	.	1ryy	8F\	.	Sy-	8An\	Sy-	8f\	Sÿ-	8cc\	Sÿ-	4f\	.	4f\	.
.	.	.	.	.	8qqb-/	.	.	.	.	.	.	.	.	.	.	.	.	.	.	.
.	.	.	.	.	8an\J	.	.	8F\	.	-on	8A\	-on	8f\	-on	8cc\	-on	.	.	.	.
4r	.	.	4r	.	(16g\LL	.	.	4r	.	.	4r	.	4r	.	4r	.	4r	.	4r	.
.	.	.	.	.	16f\	.	.	.	.	.	.	.	.	.	.	.	.	.	.	.
.	.	.	.	.	16ff\	.	.	.	.	.	.	.	.	.	.	.	.	.	.	.
.	.	.	.	.	16a\JJ)	.	.	.	.	.	.	.	.	.	.	.	.	.	.	.
8B-\L	.	.	8d 8B-/L	.	(16f\LL	.	.	4B-\	.	et	4B-\	et	4f\	et	4dd\	et	2B-/	.	2f\	.
.	.	.	.	.	16b-\	.	.	.	.	.	.	.	.	.	.	.	.	.	.	.
8B-\	.	.	8d 8B-/	.	16dd\	.	.	.	.	.	.	.	.	.	.	.	.	.	.	.
.	.	.	.	.	16b-\JJ)	.	.	.	.	.	.	.	.	.	.	.	.	.	.	.
8B-\	.	.	8d 8B-/	.	(16f\LL	.	.	8B-\	.	ti-	8B-\	ti-	8f\	ti-	8dd\	ti-	.	.	.	.
.	.	.	.	.	16b-\	.	.	.	.	.	.	.	.	.	.	.	.	.	.	.
8B-\J	.	.	8d 8B-/J	.	16dd\	.	.	16B-\	.	-bi	16B-\	-bi	16f\	-bi	16dd\	-bi	.	.	.	.
.	.	.	.	.	16b-\JJ)	.	.	16B-\	.	red-	16B-\	red-	16f\	red-	16dd\	red-	.	.	.	.
=41	=41	=41	=41	=41	=41	=41	=41	=41	=41	=41	=41	=41	=41	=41	=41	=41	=41	=41	=41	=41
8An\L	6 5	.	8e- 8c/L	.	(16f\LL	.	1ryy	4An\	.	-de-	4c\	-de-	4f\	-de-	4ee-\	-de-	2f\	.	2f\	.
.	.	.	.	.	16cc\	.	.	.	.	.	.	.	.	.	.	.	.	.	.	.
8An\	.	.	8e- 8c/	.	16ee-\	.	.	.	.	.	.	.	.	.	.	.	.	.	.	.
.	.	.	.	.	16cc\JJ)	.	.	.	.	.	.	.	.	.	.	.	.	.	.	.
8An\	.	.	8e- 8c/	.	(16f\LL	.	.	4A\	.	-tur	4c\	-tur	4f\	-tur	4ee-\	-tur	.	.	.	.
.	.	.	.	.	16cc\	.	.	.	.	.	.	.	.	.	.	.	.	.	.	.
8An\J	.	.	8e- 8c/J	.	16ee-\	.	.	.	.	.	.	.	.	.	.	.	.	.	.	.
.	.	.	.	.	16cc\JJ)	.	.	.	.	.	.	.	.	.	.	.	.	.	.	.
*Xtremolo	*	*	*Xtremolo	*	*	*	*	*	*	*	*	*	*	*	*	*	*	*	*	*
!	!	!	!	!	!	!	!	!	!	!	!	!	!	!	!LO:LB:g=original	!	!	!	!	!
8B-\L	5_ 3	.	8dL 8B-/	.	16dd\LL	.	.	8B-\	.	Vo-	8B-\	Vo-	8f\	Vo-	8dd\	Vo-	8B-/	.	8f\	.
.	.	.	.	.	16ff\JJ	.	.	.	.	.	.	.	.	.	.	.	.	.	.	.
8c\J	x 6n	.	8f/	.	(32ff\LLL	.	.	8c\	.	-tum	8An\	-tum	8f\	-tum	8ee-\	-tum	8r	.	8r	.
.	.	.	.	.	32ee-\	.	.	.	.	.	.	.	.	.	.	.	.	.	.	.
.	.	.	.	.	32cc\	.	.	.	.	.	.	.	.	.	.	.	.	.	.	.
.	.	.	.	.	32an\JJJ)	.	.	.	.	.	.	.	.	.	.	.	.	.	.	.
8d\L	x 6	.	8f/	.	(16b-\LL	.	.	8d\	.	in	8B-\	in	8f\	in	8dd\	in	4r	.	4r	.
.	.	.	.	.	16f\	.	.	.	.	.	.	.	.	.	.	.	.	.	.	.
8A\J	x 5	.	8f/J	.	16cc\	.	.	8An\	.	Je-	8c\	Je-	8f\	Je-	8ee-\	Je-	.	.	.	.
.	.	.	.	.	16ee-\JJ)	.	.	.	.	.	.	.	.	.	.	.	.	.	.	.
=42	=42	=42	=42	=42	=42	=42	=42	=42	=42	=42	=42	=42	=42	=42	=42	=42	=42	=42	=42	=42
*^	*	*	*	*	*	*	*	*	*	*	*	*	*	*	*	*	*	*	*	*
8B-\L	2rBByy	x 5	.	8f/L	.	(16dd\LL	.	1ryy	8B-\	.	-ru-	8B-\	-ru-	8f\	-ru-	8dd\	-ru-	2r	.	2r	.
.	.	.	.	.	.	16ff\JJ	.	.	.	.	.	.	.	.	.	.	.	.	.	.	.
8c\	.	x 6n	.	8f/J	.	32ff\LLL)	.	.	8c\	.	-sa-	8An\	-sa-	8f\	-sa-	8ee-\	-sa-	.	.	.	.
.	.	.	.	.	.	32ee-\	.	.	.	.	.	.	.	.	.	.	.	.	.	.	.
.	.	.	.	.	.	32cc\	.	.	.	.	.	.	.	.	.	.	.	.	.	.	.
.	.	.	.	.	.	32an\JJJ	.	.	.	.	.	.	.	.	.	.	.	.	.	.	.
8d\J	.	X 6	.	8f/L	.	16b-\LL	.	.	8d\	.	-lem	8B-\	-lem,	8f\	-lem	8dd\	-lem	.	.	.	.
.	.	.	.	.	.	16b-\	.	.	.	.	.	.	.	.	.	.	.	.	.	.	.
8r	.	.	.	16an/L	.	16cc\	.	.	8F\	.	ex-	8f\	ex-	8b-\	ex-	8dd\	ex-	.	.	.	.
.	.	.	.	16b-/JJ	.	16dd\JJ	.	.	.	.	.	.	.	.	.	.	.	.	.	.	.
!	!	!	!	!	!	!	!	!	!	!	!	!	!	!LO:LB:g=original	!	!	!	!	!	!	!
2F\	2FF/	7	.	16cc/LL	.	16ee-\LL	.	.	2F\	.	-au-	2f\	-au-	16cc\LL	-au-	16ee-\LL	-au-	2f\	.	2f\	.
.	.	.	.	16b-/	.	16dd\	.	.	.	.	.	.	.	16b-\JJ	.	16dd\JJ	.	.	.	.	.
.	.	.	.	16a/	.	16cc\	.	.	.	.	.	.	.	16an\LL	.	16cc\LL	.	.	.	.	.
.	.	.	.	16g/JJ	.	16b-\JJ	.	.	.	.	.	.	.	16g\JJ	.	16b-\JJ	.	.	.	.	.
.	.	.	.	16f/LL	.	16an/LL	.	.	.	.	.	.	.	16f\LL	.	16an/LL	.	.	.	.	.
.	.	.	.	16e-/	.	16g/	.	.	.	.	.	.	.	16e-\JJ	.	16g/JJ	.	.	.	.	.
.	.	.	.	16d/	.	16f/	.	.	.	.	.	.	.	16d\LL	.	16f/LL	.	.	.	.	.
.	.	.	.	16c/JJ	.	16e-/JJ	.	.	.	.	.	.	.	16c\JJ	.	16e-/JJ	.	.	.	.	.
*v	*v	*	*	*	*	*	*	*	*	*	*	*	*	*	*	*	*	*	*	*	*
=43	=43	=43	=43	=43	=43	=43	=43	=43	=43	=43	=43	=43	=43	=43	=43	=43	=43	=43	=43	=43
4BB-/	.	.	16B-/LL	.	16d/LL	.	1ryy	8BB-/	.	-di	8F/	-di,	8B-/	-di	8d/	-di	4B-/	.	4f\	.
.	.	.	16d/J	.	16f/	.	.	.	.	.	.	.	.	.	.	.	.	.	.	.
.	.	.	8d/J	.	16f/	.	.	8r	.	.	8r	.	8d\	o-	8f/	o-	.	.	.	.
.	.	.	.	.	16b-/JJ	.	.	.	.	.	.	.	.	.	.	.	.	.	.	.
!	!	!	!LO:TX:t=P:problem=mixed beam	!	!	!	!	!	!	!	!	!	!	!	!	!	!	!	!	!
4r	.	.	16d/LL	.	16b-\LL	.	.	8r	.	.	8r	.	8d\	-ra-	8b-\	-ra-	4r	.	4r	.
.	.	.	16b-\	.	16dd\	.	.	.	.	.	.	.	.	.	.	.	.	.	.	.
.	.	.	16b-\	.	16dd\	.	.	8F\	.	o-	8f\	o-	16b-\LL	-ti-	16dd\LL	-ti-	.	.	.	.
.	.	.	16dd\JJ	.	16ff\JJ	.	.	.	.	.	.	.	16dd\JJ	.	16ff\JJ	.	.	.	.	.
!	!	!	!LO:LB:g=original	!	!LO:LB:g=original	!	!	!LO:LB:g=original	!	!	!LO:LB:g=original	!	!	!	!	!	!	!	!	!
2F\	7	.	(32cc\LLL	.	32ee-\LLL	.	.	8F\	.	-ra-	8f\	-ra-	16cc\LL	-o-	16ee-\LL	-o-	2f\	.	2f\	.
.	.	.	32dd\	.	32ff\	.	.	.	.	.	.	.	.	.	.	.	.	.	.	.
.	.	.	32b-\	.	32dd\	.	.	.	.	.	.	.	16b-\JJ	.	16dd\JJ	.	.	.	.	.
.	.	.	32cc\JJJ)	.	32ee-\JJJ	.	.	.	.	.	.	.	.	.	.	.	.	.	.	.
.	.	.	(32an\LLL	.	32cc\LLL	.	.	8F\	.	-ti-	8f\	-ti-	16an\LL	-nem	16cc\LL	-nem	.	.	.	.
.	.	.	32b-\	.	32dd\	.	.	.	.	.	.	.	.	.	.	.	.	.	.	.
.	.	.	32g\	.	32b-\	.	.	.	.	.	.	.	16g\JJ	.	16b-\JJ	.	.	.	.	.
.	.	.	32a\JJJ)	.	32cc\JJJ	.	.	.	.	.	.	.	.	.	.	.	.	.	.	.
.	.	.	(32f/LLL	.	32an\LLL	.	.	8F\	.	-o-	8f\	-o-	16f\LL	me-	16an/LL	me-	.	.	.	.
.	.	.	32g/	.	32b-\	.	.	.	.	.	.	.	.	.	.	.	.	.	.	.
.	.	.	32e-/	.	32g\	.	.	.	.	.	.	.	16e-\JJ	.	16g/JJ	.	.	.	.	.
.	.	.	32f/JJJ)	.	32a\JJJ	.	.	.	.	.	.	.	.	.	.	.	.	.	.	.
.	.	.	32d/LLL	.	32f\LLL	.	.	8F\	.	-nem	8f\	-nem	16d\LL	.	16f/LL	.	.	.	.	.
.	.	.	32e-/	.	32g\	.	.	.	.	.	.	.	.	.	.	.	.	.	.	.
.	.	.	32c/	.	32e-\	.	.	.	.	.	.	.	16c\JJ	.	16e-/JJ	.	.	.	.	.
.	.	.	32d/JJJ	.	32f\JJJ	.	.	.	.	.	.	.	.	.	.	.	.	.	.	.
=44	=44	=44	=44	=44	=44	=44	=44	=44	=44	=44	=44	=44	=44	=44	=44	=44	=44	=44	=44	=44
!LO:LB:g=original	!	!	!LO:TX:t=P:problem=mixed beam	!	!LO:TX:t=P:problem=mixed beam	!	!	!	!	!	!	!	!	!	!	!	!	!	!	!
!	!	!	!	!	!	!	!	!	!	!	!	!	!	!	!	!	!	!	!LO:LB:g=original	!
8B-\	.	.	16B-'/LL	.	16d/LL	.	1ryy	8B-\	.	me-	8f\	me-	4B-/	-am	4d/	-am	4B-/	.	4f\	.
.	.	.	16b-'\	.	16bb-'\	.	.	.	.	.	.	.	.	.	.	.	.	.	.	.
8r	.	.	16b-'\	.	16bb-'\	.	.	8BB-/	.	-am	8F/	-am	.	.	.	.	.	.	.	.
.	.	.	16b-'\JJ	.	16bb-'\JJ	.	.	.	.	.	.	.	.	.	.	.	.	.	.	.
8r	.	.	(16b-\LL	.	(16bb-\LL	.	.	8r	.	.	8r	.	8r	.	8r	.	4r	.	4r	.
.	.	.	16an\	.	16aa-\)	.	.	.	.	.	.	.	.	.	.	.	.	.	.	.
8D\L	6	.	16g\	.	(16gg\	.	.	8D\	.	ad-	8B-\	ad-	8b-\	ad	8ff\	ad	.	.	.	.
.	.	.	16f\JJ)	.	16ff#X\JJ)	.	.	.	.	.	.	.	.	.	.	.	.	.	.	.
8E-\J	.	.	16e-'/LL	.	16gg'\LL	.	.	8E-\	.	-te	8B-\	-te	8b-\	te	8gg\	te	2r	.	2r	.
.	.	.	16g'/	.	16gg'\	.	.	.	.	.	.	.	.	.	.	.	.	.	.	.
8r	.	.	16g'/	.	16gg'\	.	.	8r	.	.	8r	.	8r	.	8r	.	.	.	.	.
.	.	.	16g'/JJ	.	16gg'\JJ	.	.	.	.	.	.	.	.	.	.	.	.	.	.	.
8r	.	.	(16g/LL	.	(16gg\LL	.	.	8r	.	.	8r	.	8r	.	8r	.	.	.	.	.
.	.	.	16f/	.	16ff#\)	.	.	.	.	.	.	.	.	.	.	.	.	.	.	.
*	*	*	*	*	*	*	*	*	*	*ij	*	*ij	*	*ij	*	*ij	*	*	*	*
8BBn/	6	.	16e-/	.	(16ee-\	.	.	8BBn/	.	ad-	8G/	ad-	8g\	ad	8dd\	ad	.	.	.	.
.	.	.	16d/JJ)	.	16dd\JJ	.	.	.	.	.	.	.	.	.	.	.	.	.	.	.
=45	=45	=45	=45	=45	=45	=45	=45	=45	=45	=45	=45	=45	=45	=45	=45	=45	=45	=45	=45	=45
8C/	.	.	16c'/LL	.	16ee-\LL)	.	1ryy	8C/	.	-te	8G/	-te	8g\	te	8ee-\	te	1r	.	1r	.
*	*	*	*	*	*	*	*	*	*	*Xij	*	*Xij	*	*Xij	*	*Xij	*	*	*	*
.	.	.	16e-'/	.	16ee-'\	.	.	.	.	.	.	.	.	.	.	.	.	.	.	.
8r	.	.	16e-'/	.	16ee-'\	.	.	8r	.	.	8r	.	8r	.	8r	.	.	.	.	.
.	.	.	16e-'/JJ	.	16ee-'\JJ	.	.	.	.	.	.	.	.	.	.	.	.	.	.	.
8r	.	.	(16e-/LL	.	(16ee-\LL	.	.	8r	.	.	8r	.	8r	.	8r	.	.	.	.	.
.	.	.	16d/	.	16dd\)	.	.	.	.	.	.	.	.	.	.	.	.	.	.	.
8D\L	6	.	16c/	.	(16cc\	.	.	8D\	.	ad-	8F/	ad-	8g\	ad	8bn\	ad	.	.	.	.
.	.	.	16Bn/JJ)	.	16bn\JJ)	.	.	.	.	.	.	.	.	.	.	.	.	.	.	.
8E-\J	.	.	16c/LL	.	(16cc\LL	.	.	8E-\	.	-te	8E-/	-te	8g\	te	8cc\	te	.	.	.	.
.	.	.	16d/	.	16dd\	.	.	.	.	.	.	.	.	.	.	.	.	.	.	.
8r	.	.	16e-/	.	16ee-\	.	.	8r	.	.	8r	.	8r	.	8r	.	.	.	.	.
.	.	.	16f/JJ	.	16ff\JJ)	.	.	.	.	.	.	.	.	.	.	.	.	.	.	.
8r	.	.	16g/LL	.	16gg\LL	.	.	4r	.	.	4r	.	4r	.	4r	.	.	.	.	.
.	.	.	16e-/	.	(16ee-\	.	.	.	.	.	.	.	.	.	.	.	.	.	.	.
8En\	6	.	16c/	.	16cc\	.	.	.	.	.	.	.	.	.	.	.	.	.	.	.
.	.	.	16B/JJ	.	16b-X\JJ)	.	.	.	.	.	.	.	.	.	.	.	.	.	.	.
=46	=46	=46	=46	=46	=46	=46	=46	=46	=46	=46	=46	=46	=46	=46	=46	=46	=46	=46	=46	=46
8F\	.	.	16f/LL	.	16an\LL	.	1ryy	1r	.	.	1r	.	1r	.	1r	.	1r	.	1r	.
.	.	.	16g/	.	16b-\	.	.	.	.	.	.	.	.	.	.	.	.	.	.	.
8r	.	.	16an/	.	16cc\	.	.	.	.	.	.	.	.	.	.	.	.	.	.	.
.	.	.	16b-/JJ	.	16dd\JJ	.	.	.	.	.	.	.	.	.	.	.	.	.	.	.
8r	.	.	16cc\LL	.	16ee-\LL	.	.	.	.	.	.	.	.	.	.	.	.	.	.	.
.	.	.	16ee-\	.	16gg\	.	.	.	.	.	.	.	.	.	.	.	.	.	.	.
8An\L	5	.	16dd\	.	16ff\	.	.	.	.	.	.	.	.	.	.	.	.	.	.	.
.	.	.	16cc\JJ	.	16ee-\JJ	.	.	.	.	.	.	.	.	.	.	.	.	.	.	.
!	!	!	!LO:LB:g=original	!	!	!	!	!	!	!	!	!	!	!	!	!	!	!	!	!
8B-\J	.	.	16b-\LL	.	16dd\LL	.	.	.	.	.	.	.	.	.	.	.	.	.	.	.
.	.	.	16cc\	.	16ee-\	.	.	.	.	.	.	.	.	.	.	.	.	.	.	.
8r	.	.	16dd\	.	16ff\	.	.	.	.	.	.	.	.	.	.	.	.	.	.	.
.	.	.	16ee-\JJ	.	16gg\JJ	.	.	.	.	.	.	.	.	.	.	.	.	.	.	.
8r	.	.	16ff\LL	.	16aa-X\LL	.	.	.	.	.	.	.	.	.	.	.	.	.	.	.
.	.	.	16aa-X\	.	16ccc\	.	.	.	.	.	.	.	.	.	.	.	.	.	.	.
8D\	5-	.	16gg\	.	16bb-\	.	.	.	.	.	.	.	.	.	.	.	.	.	.	.
.	.	.	16ff\JJ	.	16aa-\JJ	.	.	.	.	.	.	.	.	.	.	.	.	.	.	.
=47	=47	=47	=47	=47	=47	=47	=47	=47	=47	=47	=47	=47	=47	=47	=47	=47	=47	=47	=47	=47
*	*	*	*tuplet	*	*tuplet	*	*	*	*	*	*tuplet	*	*	*	*Xtuplet	*	*	*	*	*
!	!	!	!LO:TUP:a:problem=klamra łukowa, kropka zamiast numeru	!	!LO:TUP:a:problem=klamra łukowa, kropka zamiast numeru	!	!	!	!	!	!LO:TUP:problem=klamra łukowa, kropka zamiast numeru	!	!LO:LB:g=original	!	!LO:LB:g=original	!	!	!	!	!
8E-\	.	.	24ee-\LL	.	24gg\LL	.	1ryy	4E-\	.	ad	24e-\LL	ad	4r	.	24gg\LL	ad-	4r	.	4r	.
.	.	.	24gg\	.	24bb-\	.	.	.	.	.	24g\	.	.	.	24bb-\	.	.	.	.	.
.	.	.	24ff\JJ	.	24aan\JJ	.	.	.	.	.	24f\JJ	.	.	.	24aan\JJ	.	.	.	.	.
!	!	!	!LO:TUP:a:problem=klamra łukowa, kropka zamiast numeru	!	!LO:TUP:a:problem=klamra łukowa, kropka zamiast numeru	!	!	!	!	!	!LO:TUP:problem=klamra łukowa, kropka zamiast numeru	!	!	!	!	!	!	!	!	!
8r	.	.	24ee-\LL	.	24gg\LL	.	.	.	.	.	24e-\LL	.	.	.	24gg\LL	.	.	.	.	.
.	.	.	24dd\	.	24ff\	.	.	.	.	.	24d\	.	.	.	24ff\	.	.	.	.	.
.	.	.	24cc\JJ	.	24ee-\JJ	.	.	.	.	.	24c\JJ	.	.	.	24ee-\JJ	.	.	.	.	.
!LO:TX:t=P:problem=mixed beam	!	!	!	!	!	!	!	!	!	!	!	!	!	!	!	!	!	!	!	!
8F\L	6 4	.	8b-\L	.	8dd\L	.	.	8F\L	.	.	8B-\L	.	8f\	ad	8dd\L	.	8f\L	.	8f\L	.
!	!	!	!	!	!	!	!	!LO:TX:t=P:problem=mixed beam	!	!	!	!	!	!	!	!	!	!	!	!
8FF/J	5 n	.	8an\J	.	8cc\J	.	.	8FF/J	.	.	8An\J	.	8f\	te	8cc\J	.	8f\J	.	8f\J	.
8BB-/	.	.	8b- 8d/	.	16r	.	.	4BB-/	.	te	4B-\	te	4f\	om-	4dd\	-te	8B-/	.	8f\	.
.	.	.	.	.	16bb-\LL	.	.	.	.	.	.	.	.	.	.	.	.	.	.	.
8r	.	.	8r	.	16aa\	.	.	.	.	.	.	.	.	.	.	.	8r	.	8r	.
.	.	.	.	.	16bb-\JJ	.	.	.	.	.	.	.	.	.	.	.	.	.	.	.
8r	.	.	8r	.	16ddd\LL	.	.	8B-\	.	om-	8B-\	om-	4f\	-nis	8dd\	om-	4r	.	4r	.
.	.	.	.	.	16bb-\J	.	.	.	.	.	.	.	.	.	.	.	.	.	.	.
8B-\	.	.	8bb-\	.	8bb-\J	.	.	8B-\	.	-nis.	8B-\	-nis	.	.	8dd\	-nis	.	.	.	.
=48	=48	=48	=48	=48	=48	=48	=48	=48	=48	=48	=48	=48	=48	=48	=48	=48	=48	=48	=48	=48
!	!	!	!	!	!	!	!	!BB	!	!	!LO:LB:g=original	!	!	!	!	!	!	!	!	!
8G\	.	.	8gg\	.	16r	.	1ryy	4G\	.	ca-	4B-\	Ca-	4g\	Ca-	4dd\	ca-	1r	.	1r	.
.	.	.	.	.	16bb-\LL	.	.	.	.	.	.	.	.	.	.	.	.	.	.	.
8r	.	.	8r	.	16aan\	.	.	.	.	.	.	.	.	.	.	.	.	.	.	.
.	.	.	.	.	16bb-\JJ	.	.	.	.	.	.	.	.	.	.	.	.	.	.	.
8r	.	.	8r	.	16ddd\LL	.	.	4G\	.	-ro	4B-\	-ro	4g\	-ro	4dd\	-ro	.	.	.	.
.	.	.	.	.	16bb-\J	.	.	.	.	.	.	.	.	.	.	.	.	.	.	.
8G\	.	.	8gg\	.	8bb-\J	.	.	.	.	.	.	.	.	.	.	.	.	.	.	.
!LO:LB:g=original	!	!	!	!	!	!	!	!	!	!	!	!	!	!	!	!	!	!	!	!
8En\	7-	.	8een\	.	16r	.	.	4.En\	.	ve-	4.B-\	ve-	4.g\	ve-	4.dd-X\	ve-	.	.	.	.
.	.	.	.	.	16bb-\LL	.	.	.	.	.	.	.	.	.	.	.	.	.	.	.
8r	.	.	8r	.	16aa\	.	.	.	.	.	.	.	.	.	.	.	.	.	.	.
.	.	.	.	.	16bb-\JJ	.	.	.	.	.	.	.	.	.	.	.	.	.	.	.
8r	.	.	8r	.	16ddd-X\LL	.	.	.	.	.	.	.	.	.	.	.	.	.	.	.
.	.	.	.	.	16bb-\J	.	.	.	.	.	.	.	.	.	.	.	.	.	.	.
8E\	.	.	16ee\LL	.	8bb-\J	.	.	8E\	.	-ni-	8B-\	-ni-	8g\	-ni-	8dd-\	-ni-	.	.	.	.
.	.	.	16gg\JJ	.	.	.	.	.	.	.	.	.	.	.	.	.	.	.	.	.
=49	=49	=49	=49	=49	=49	=49	=49	=49	=49	=49	=49	=49	=49	=49	=49	=49	=49	=49	=49	=49
4F\	n	.	8ff\L	.	16aan\LL	.	1ryy	4F\	.	-et.	4An\	-et,	4an\	-et	4cc\	-et.	1r	.	1r	.
.	.	.	.	.	16ccc\	.	.	.	.	.	.	.	.	.	.	.	.	.	.	.
.	.	.	.	.	8qqbb-/	.	.	.	.	.	.	.	.	.	.	.	.	.	.	.
.	.	.	8cc\J	.	16aa\	.	.	.	.	.	.	.	.	.	.	.	.	.	.	.
.	.	.	.	.	16gg\JJ	.	.	.	.	.	.	.	.	.	.	.	.	.	.	.
4An\	6 5	.	4cc\	.	8ff\L	.	.	4r	.	.	4r	.	4r	.	4r	.	.	.	.	.
.	.	.	.	.	8ee-\J	.	.	.	.	.	.	.	.	.	.	.	.	.	.	.
4B-\	.	.	16dd\LL	.	8dd\L	.	.	2r	.	.	2r	.	2r	.	2r	.	.	.	.	.
.	.	.	16ff\	.	.	.	.	.	.	.	.	.	.	.	.	.	.	.	.	.
.	.	.	16dd\	.	8ff\J	.	.	.	.	.	.	.	.	.	.	.	.	.	.	.
.	.	.	16cc\JJ	.	.	.	.	.	.	.	.	.	.	.	.	.	.	.	.	.
4D\	6 5	.	8b-/L	.	4ff\	.	.	.	.	.	.	.	.	.	.	.	.	.	.	.
.	.	.	8an/J	.	.	.	.	.	.	.	.	.	.	.	.	.	.	.	.	.
=50	=50	=50	=50	=50	=50	=50	=50	=50	=50	=50	=50	=50	=50	=50	=50	=50	=50	=50	=50	=50
4E-\	.	.	4g/	.	16gg\LL	.	1ryy	1r	.	.	1r	.	1r	.	1r	.	1r	.	1r	.
.	.	.	.	.	16bb-\	.	.	.	.	.	.	.	.	.	.	.	.	.	.	.
.	.	.	.	.	16gg\	.	.	.	.	.	.	.	.	.	.	.	.	.	.	.
.	.	.	.	.	16ff\JJ	.	.	.	.	.	.	.	.	.	.	.	.	.	.	.
4G\	6 5	.	4b-/	.	8ee-\L	.	.	.	.	.	.	.	.	.	.	.	.	.	.	.
.	.	.	.	.	8dd\J	.	.	.	.	.	.	.	.	.	.	.	.	.	.	.
4A-\	.	.	16cc\LL	.	8cc\L	.	.	.	.	.	.	.	.	.	.	.	.	.	.	.
.	.	.	16ee-\	.	.	.	.	.	.	.	.	.	.	.	.	.	.	.	.	.
.	.	.	16cc\	.	8ee-\J	.	.	.	.	.	.	.	.	.	.	.	.	.	.	.
.	.	.	16b-\JJ	.	.	.	.	.	.	.	.	.	.	.	.	.	.	.	.	.
!	!	!	!	!	!LO:TX:b:i:t=V&colon;S&colon;	!	!	!	!	!	!	!	!	!	!	!	!	!	!	!
4C/	6 5	.	8an/L	.	4ee-\	.	.	.	.	.	.	.	.	.	.	.	.	.	.	.
.	.	.	8g/J	.	.	.	.	.	.	.	.	.	.	.	.	.	.	.	.	.
=51	=51	=51	=51	=51	=51	=51	=51	=51	=51	=51	=51	=51	=51	=51	=51	=51	=51	=51	=51	=51
!	!	!	!LO:LB:g=original	!	!LO:PB:g=original	!	!	!	!	!	!	!	!	!	!	!	!	!	!	!
4D\	#	.	4f#X/	.	16ff#X\LL	.	1ryy	2r	.	.	2r	.	2r	.	2r	.	1r	.	1r	.
.	.	.	.	.	16aan\	.	.	.	.	.	.	.	.	.	.	.	.	.	.	.
.	.	.	.	.	16ff#\	.	.	.	.	.	.	.	.	.	.	.	.	.	.	.
.	.	.	.	.	16ee-\JJ	.	.	.	.	.	.	.	.	.	.	.	.	.	.	.
4F#X\	6 5	.	4a-/	.	8dd\L	.	.	.	.	.	.	.	.	.	.	.	.	.	.	.
.	.	.	.	.	8cc\J	.	.	.	.	.	.	.	.	.	.	.	.	.	.	.
8G\L	5_ 3	.	16d/LL	.	16b-\LL	.	.	8G\	.	Ky-	8D/	Ky-	8b-\	Ky-	4dd\	Ky-	.	.	.	.
.	.	.	16d/	.	16dd\	.	.	.	.	.	.	.	.	.	.	.	.	.	.	.
8An\	x 6\	.	16d/	.	16cc\	.	.	8An\	.	-ri-	8D/	-ri-	8f#X\	-ri-	.	.	.	.	.	.
.	.	.	16d/JJ	.	16a-\JJ	.	.	.	.	.	.	.	.	.	.	.	.	.	.	.
*	*	*	*tremolo	*	*	*	*	*	*	*	*	*	*	*	*	*	*	*	*	*
8B-\	x 6	.	16d/LL	.	8g\L	.	.	8B-\	.	-ae	8D/	-ae	8g\	-ae	4dd\	-ri-	.	.	.	.
.	.	.	16d/	.	.	.	.	.	.	.	.	.	.	.	.	.	.	.	.	.
8F#\J	X 5	.	16d/	.	16a-\L	.	.	8F#X\	.	e-	8D/	e-	8an\	e-	.	.	.	.	.	.
.	.	.	16d/JJ	.	16cc\JJ	.	.	.	.	.	.	.	.	.	.	.	.	.	.	.
=52	=52	=52	=52	=52	=52	=52	=52	=52	=52	=52	=52	=52	=52	=52	=52	=52	=52	=52	=52	=52
8G\L	.	.	16d/LL	.	16b-\LL	.	1ryy	8G\L	.	-lei-	4D/	-lei-	8b-\L	-lei-	4dd\	-ae	1r	.	1r	.
.	.	.	16d/	.	16dd\	.	.	.	.	.	.	.	.	.	.	.	.	.	.	.
8A-\J	6\	.	16d/	.	16b-\	.	.	8An\J	.	.	.	.	8f#X\J	.	.	.	.	.	.	.
.	.	.	16d/JJ	.	16an\JJ	.	.	.	.	.	.	.	.	.	.	.	.	.	.	.
*	*	*	*Xtremolo	*	*	*	*	*	*	*	*	*	*	*	*	*	*	*	*	*
!	!	!	!LO:TX:t=P:problem=mixed beam	!	!LO:TX:t=P:problem=mixed beam	!	!	!	!	!	!	!	!	!	!	!	!	!	!	!
4B-\	6	.	8d/L	.	8g/L	.	.	4B-\	.	-son	8D/	-son	4g\	-son	4dd\	e-	.	.	.	.
.	.	.	8dd\J	.	8gg\J	.	.	.	.	.	8r	.	.	.	.	.	.	.	.	.
.	.	.	8qqdd/	.	8qqff	.	.	.	.	.	.	.	.	.	.	.	.	.	.	.
!	!	!	!	!	!	!	!	!	!	!	!	!	!LO:LB:g=original	!	!LO:LB:g=original	!	!	!	!	!
4c\	6 5	.	8cc\L	.	8ee-\L	.	.	4c\	.	e-	8r	.	8cc\L	e-	8ee-\L	-lei-	.	.	.	.
.	.	.	16b-\L	.	16dd\L	.	.	.	.	.	8e-\	e-	16b-\L	.	16dd\L	.	.	.	.	.
.	.	.	16an\JJ	.	16cc\JJ	.	.	.	.	.	.	.	16an\JJ	.	16cc\JJ	.	.	.	.	.
!LO:TX:t=P:problem=mixed beam	!	!	!	!	!	!	!	!	!	!	!	!	!	!	!	!	!	!	!	!
!	!	!	!	!	!	!	!	!LO:TX:t=P:problem=mixed beam	!	!	!	!	!	!	!	!	!	!	!	!
8d\L	6 4	.	8g/L	.	8b-\L	.	.	8d\L	.	-lei-	4d\	-lei-	8g\L	-lei-	8b-\L	.	.	.	.	.
8D/J	5 #	.	8f#X/J	.	8an\J	.	.	8D/J	.	.	.	.	8f#X\J	.	8an\J	.	.	.	.	.
=53	=53	=53	=53	=53	=53	=53	=53	=53	=53	=53	=53	=53	=53	=53	=53	=53	=53	=53	=53	=53
!	!	!	!	!	!LO:TX:t=P:problem=mixed beam	!	!	!	!	!	!	!	!	!	!	!	!	!	!	!
8G\	.	.	8g/	.	16g/LL	.	1ryy	8G\	.	-son	8d\	-son	8g\	-son	8g\	-son	4r	.	4r	.
.	.	.	.	.	16gg\	.	.	.	.	.	.	.	.	.	.	.	.	.	.	.
8r	.	.	8r	.	16gg\	.	.	8r	.	.	8r	.	8r	.	8r	.	.	.	.	.
.	.	.	.	.	16gg\JJ	.	.	.	.	.	.	.	.	.	.	.	.	.	.	.
*	*	*	*	*	*	*	*	*	*	*	*	*ij	*	*	*	*	*	*	*	*
4Fn\	4| 2	.	16bn\LL	.	[2.gg\	.	.	4Fn\	.	e-	4Bn\	e-	4g\	e-	4dd\	e-	4G/	.	4g\	.
.	.	.	16cc\	.	.	.	.	.	.	.	.	.	.	.	.	.	.	.	.	.
.	.	.	16dd\	.	.	.	.	.	.	.	.	.	.	.	.	.	.	.	.	.
.	.	.	16b\JJ	.	.	.	.	.	.	.	.	.	.	.	.	.	.	.	.	.
4E-\	6	.	16cc\LL	.	.	.	.	4E-\	6	-lei-	4c\	-lei-	2g\	-lei-	4ee-\	-lei-	[2G/	.	[2g\	.
.	.	.	16dd\	.	.	.	.	.	.	.	.	.	.	.	.	.	.	.	.	.
.	.	.	16ee-\	.	.	.	.	.	.	.	.	.	.	.	.	.	.	.	.	.
.	.	.	16cc\JJ	.	.	.	.	.	.	.	.	.	.	.	.	.	.	.	.	.
4BBn/	6 5	.	16dd\LL	.	.	.	.	4BBn/	.	.	4d\	.	.	.	4ff\	.	.	.	.	.
.	.	.	16ee-\	.	.	.	.	.	.	.	.	.	.	.	.	.	.	.	.	.
.	.	.	16ff\	.	.	.	.	.	.	.	.	.	.	.	.	.	.	.	.	.
.	.	.	16dd\JJ	.	.	.	.	.	.	.	.	.	.	.	.	.	.	.	.	.
=54	=54	=54	=54	=54	=54	=54	=54	=54	=54	=54	=54	=54	=54	=54	=54	=54	=54	=54	=54	=54
!LO:LB:g=original	!	!	!	!	!	!	!	!LO:LB:g=original	!	!	!	!	!	!	!	!	!LO:LB:g=original	!	!	!
4C/	.	.	16ee-\LL	.	4gg\]	.	1ryy	4C/	.	-son	4c\	-son	4g\	-son	4ee-\	-son	4G/]	.	4g\]	.
*	*	*	*	*	*	*	*	*	*	*	*	*Xij	*	*	*	*	*	*	*	*
.	.	.	16ff\	.	.	.	.	.	.	.	.	.	.	.	.	.	.	.	.	.
.	.	.	16gg\	.	.	.	.	.	.	.	.	.	.	.	.	.	.	.	.	.
.	.	.	16ee-\JJ	.	.	.	.	.	.	.	.	.	.	.	.	.	.	.	.	.
!	!	!	!	!	!LO:TX:t=P:problem=mixed beam	!	!	!	!	!	!	!	!	!	!	!	!	!	!	!
4r	.	.	4r	.	16fn/LL	.	.	4r	.	.	4r	.	4r	.	4r	.	4r	.	4r	.
.	.	.	.	.	16ff\	.	.	.	.	.	.	.	.	.	.	.	.	.	.	.
.	.	.	.	.	16ff\	.	.	.	.	.	.	.	.	.	.	.	.	.	.	.
.	.	.	.	.	16ff\JJ	.	.	.	.	.	.	.	.	.	.	.	.	.	.	.
*	*	*	*	*	*	*	*	*	*	*	*	*	*	*	*	*ij	*	*	*	*
4E-\	4n 2	.	16an\LL	.	[2ff\	.	.	4E-\	.	e-	4An\	e-	4f\	e-	4cc\	e-	2f\	.	[2f\	.
.	.	.	16b-\	.	.	.	.	.	.	.	.	.	.	.	.	.	.	.	.	.
.	.	.	16cc\	.	.	.	.	.	.	.	.	.	.	.	.	.	.	.	.	.
.	.	.	16a\JJ	.	.	.	.	.	.	.	.	.	.	.	.	.	.	.	.	.
4D\	6	.	16b-\LL	.	.	.	.	4D\	.	-lei-	4B-\	-lei-	[4f\	-lei-	4dd\	-lei-	.	.	.	.
.	.	.	16cc\	.	.	.	.	.	.	.	.	.	.	.	.	.	.	.	.	.
.	.	.	16dd\	.	.	.	.	.	.	.	.	.	.	.	.	.	.	.	.	.
.	.	.	16b-\JJ	.	.	.	.	.	.	.	.	.	.	.	.	.	.	.	.	.
=55	=55	=55	=55	=55	=55	=55	=55	=55	=55	=55	=55	=55	=55	=55	=55	=55	=55	=55	=55	=55
!	!	!	!	!	!	!	!	!	!	!	!LO:LB:g=original	!	!	!	!	!	!	!	!	!
4AAn/	6 5	.	16cc\LL	.	2ff\]	.	1ryy	4AAn/	.	.	4c\	.	4f\]	.	4ee-\	.	4f\	.	2f\]	.
.	.	.	16dd\	.	.	.	.	.	.	.	.	.	.	.	.	.	.	.	.	.
.	.	.	16ee-\	.	.	.	.	.	.	.	.	.	.	.	.	.	.	.	.	.
.	.	.	16cc\JJ	.	.	.	.	.	.	.	.	.	.	.	.	.	.	.	.	.
4BB-/	.	.	16dd\LL	.	.	.	.	4BB-/	.	-son	4B-\	-son	4f\	-son	4dd\	-son	4B-/	.	.	.
*	*	*	*	*	*	*	*	*	*	*	*	*	*	*	*	*Xij	*	*	*	*
.	.	.	16ee-\	.	.	.	.	.	.	.	.	.	.	.	.	.	.	.	.	.
.	.	.	16ff\	.	.	.	.	.	.	.	.	.	.	.	.	.	.	.	.	.
.	.	.	16dd\JJ	.	.	.	.	.	.	.	.	.	.	.	.	.	.	.	.	.
!	!	!	!LO:LB:g=original	!	!	!	!	!	!	!	!	!	!	!	!	!	!	!	!	!
4r	.	.	4r	.	16b-\LL	.	.	4r	.	.	4r	.	4r	.	4r	.	4r	.	4r	.
.	.	.	.	.	16bb-\	.	.	.	.	.	.	.	.	.	.	.	.	.	.	.
.	.	.	.	.	16bb-\	.	.	.	.	.	.	.	.	.	.	.	.	.	.	.
.	.	.	.	.	16bb-\JJ	.	.	.	.	.	.	.	.	.	.	.	.	.	.	.
4A-X\	4 2	.	16dd\LL	.	[4bb-\	.	.	4A-\	.	Chris-	4B-\	Chris-	4f\	Chris-	4dd\	Chris-	4B-/	.	4b-\	.
.	.	.	16ee-\	.	.	.	.	.	.	.	.	.	.	.	.	.	.	.	.	.
.	.	.	16ff\	.	.	.	.	.	.	.	.	.	.	.	.	.	.	.	.	.
.	.	.	16dd\JJ	.	.	.	.	.	.	.	.	.	.	.	.	.	.	.	.	.
=56	=56	=56	=56	=56	=56	=56	=56	=56	=56	=56	=56	=56	=56	=56	=56	=56	=56	=56	=56	=56
4G\	6	.	16ee-\LL	.	2bb-\]	.	1ryy	4G\	.	-te	4B-\	-te	4g\	-te	4ee-\	-te	2B-/	.	[2b-\	.
.	.	.	16ff\	.	.	.	.	.	.	.	.	.	.	.	.	.	.	.	.	.
.	.	.	16gg\	.	.	.	.	.	.	.	.	.	.	.	.	.	.	.	.	.
.	.	.	16ee-\JJ	.	.	.	.	.	.	.	.	.	.	.	.	.	.	.	.	.
4D\	6 5	.	16ff\LL	.	.	.	.	4D\	.	e-	4B-\	e-	4a-\	e-	4ff\	e-	.	.	.	.
.	.	.	16gg\	.	.	.	.	.	.	.	.	.	.	.	.	.	.	.	.	.
.	.	.	16aa-X\	.	.	.	.	.	.	.	.	.	.	.	.	.	.	.	.	.
.	.	.	16ff\JJ	.	.	.	.	.	.	.	.	.	.	.	.	.	.	.	.	.
4E-\	.	.	16gg\LL	.	4bb-\	.	.	4E-\	.	-lei-	4B-\	-lei-	4g\	-lei-	2ee-\	-lei-	4B-/	.	4b-\]	.
.	.	.	16aa-\	.	.	.	.	.	.	.	.	.	.	.	.	.	.	.	.	.
.	.	.	16bb-\	.	.	.	.	.	.	.	.	.	.	.	.	.	.	.	.	.
.	.	.	16gg\JJ	.	.	.	.	.	.	.	.	.	.	.	.	.	.	.	.	.
4C/	6n	.	4ee-\	.	(16aan\LL	.	.	4C/	.	.	4c\	.	4an\	.	.	.	4r	.	4r	.
.	.	.	.	.	16bb-\	.	.	.	.	.	.	.	.	.	.	.	.	.	.	.
.	.	.	.	.	16ccc\	.	.	.	.	.	.	.	.	.	.	.	.	.	.	.
.	.	.	.	.	16aa\JJ)	.	.	.	.	.	.	.	.	.	.	.	.	.	.	.
=57	=57	=57	=57	=57	=57	=57	=57	=57	=57	=57	=57	=57	=57	=57	=57	=57	=57	=57	=57	=57
!	!	!	!	!	!LO:LB:g=original	!	!	!	!	!	!	!	!	!	!	!	!	!	!	!
4BB-/	.	.	4dd\	.	16bb-\LL	.	1ryy	4BB-/	.	-son	8d\	-son	4b-\	-son	4dd\	-son	4B-/	.	4f\	.
.	.	.	.	.	16ff\	.	.	.	.	.	.	.	.	.	.	.	.	.	.	.
.	.	.	.	.	16ddd\	.	.	.	.	.	8f\	e-	.	.	.	.	.	.	.	.
.	.	.	.	.	16bb-\JJ	.	.	.	.	.	.	.	.	.	.	.	.	.	.	.
*	*	*	*	*	*	*	*	*	*	*ij	*	*	*	*	*	*	*	*	*	*
4C/	6n	.	4ee-\	.	16aan\LL	.	.	4C/	.	e-	4c\	-lei-	4e-\	e-	4an\	e-	4r	.	4r	.
.	.	.	.	.	16eee-\	.	.	.	.	.	.	.	.	.	.	.	.	.	.	.
.	.	.	.	.	16ccc\	.	.	.	.	.	.	.	.	.	.	.	.	.	.	.
.	.	.	.	.	16aa\JJ	.	.	.	.	.	.	.	.	.	.	.	.	.	.	.
4BB-/	.	.	4dd\	.	16bb-\LL	.	.	4BB-/	.	-lei-	8d\	-son	4d\	-lei-	4b-\	-lei-	4B-/	.	4f\	.
.	.	.	.	.	16ff\	.	.	.	.	.	.	.	.	.	.	.	.	.	.	.
*	*	*	*	*	*	*	*	*	*	*	*	*ij	*	*	*	*	*	*	*	*
.	.	.	.	.	16ddd\	.	.	.	.	.	8f\	e-	.	.	.	.	.	.	.	.
.	.	.	.	.	16bb-\JJ	.	.	.	.	.	.	.	.	.	.	.	.	.	.	.
!	!	!	!LO:TX:b:i:t=V&colon;S&colon;	!	!	!	!	!	!	!	!	!	!	!	!	!	!	!	!	!
4C/	6	.	4ee-\	.	16aa\LL	.	.	4C/	.	.	4c\	-lei-	4e-\	.	4a\	.	4r	.	4r	.
.	.	.	.	.	16eee-\	.	.	.	.	.	.	.	.	.	.	.	.	.	.	.
.	.	.	.	.	16ccc\	.	.	.	.	.	.	.	.	.	.	.	.	.	.	.
.	.	.	.	.	16aa\JJ	.	.	.	.	.	.	.	.	.	.	.	.	.	.	.
=58	=58	=58	=58	=58	=58	=58	=58	=58	=58	=58	=58	=58	=58	=58	=58	=58	=58	=58	=58	=58
!	!	!	!LO:PB:g=original	!	!LO:TX:t=P:problem=mixed beam	!	!	!	!	!	!	!	!	!	!	!	!	!	!	!
8BB-/	.	.	8dd\	.	16bb-\LL	.	1ryy	8BB-/	.	-son	8d\	-son	8d\	-son	8b-\	-son,	4B-/	.	4f\	.
*	*	*	*	*	*	*	*	*	*	*Xij	*	*Xij	*	*	*	*	*	*	*	*
.	.	.	.	.	16b-/	.	.	.	.	.	.	.	.	.	.	.	.	.	.	.
8r	.	.	8r	.	16b-/	.	.	8r	.	.	8r	.	8r	.	8r	.	.	.	.	.
.	.	.	.	.	16b-/JJ	.	.	.	.	.	.	.	.	.	.	.	.	.	.	.
8r	.	.	8r	.	16b-\LL	.	.	8r	.	.	8r	.	8r	.	8r	.	4r	.	4r	.
.	.	.	.	.	16b-\	.	.	.	.	.	.	.	.	.	.	.	.	.	.	.
8A-\	4 2	.	8b-\	.	16dd\	.	.	8A-\	.	Chris-	8f\	Chris-	8b-\	Chris-	8dd\	Chris-	.	.	.	.
.	.	.	.	.	16b-\JJ	.	.	.	.	.	.	.	.	.	.	.	.	.	.	.
!	!	!	!	!	!	!	!	!	!	!	!	!	!LO:LB:g=original	!	!LO:LB:g=original	!	!	!	!	!
8G\L	6	.	8b-\L	.	16ee-\LL	.	.	8G\	.	-te	8e-\	-te	8b-\	-te	8ee-\	-te	4r	.	4r	.
.	.	.	.	.	16b-\	.	.	.	.	.	.	.	.	.	.	.	.	.	.	.
8D\	6	.	8b-\	.	16ff\	.	.	8D\	.	e-	8f\	e-	8b-\	e-	8ff\	e-	.	.	.	.
.	.	.	.	.	16b-\JJ	.	.	.	.	.	.	.	.	.	.	.	.	.	.	.
8E-\	3	.	8b-\	.	16gg\LL	.	.	8E-\	.	-lei-	4e-\	-lei-	8b-\L	-lei-	8gg\L	-lei-	8r	.	8r	.
.	.	.	.	.	16b-\	.	.	.	.	.	.	.	.	.	.	.	.	.	.	.
8C\J	6n	.	8ee-\J	.	16aan\	.	.	8C/	.	.	.	.	8cc\J	.	8aan\J	.	8f\	.	8f|>\	.
.	.	.	.	.	16b-\JJ	.	.	.	.	.	.	.	.	.	.	.	.	.	.	.
=59	=59	=59	=59	=59	=59	=59	=59	=59	=59	=59	=59	=59	=59	=59	=59	=59	=59	=59	=59	=59
!	!	!	!	!	!LO:TX:t=P:problem=mixed beam	!	!	!	!	!	!	!	!	!	!	!	!	!	!	!
!	!	!	!	!	!	!	!	!	!	!	!	!	!	!	!	!	!	!	!LO:LB:g=original	!
8BB-/	.	.	8dd\	.	16bb-\LL	.	1ryy	8BB-/	.	-son,	8d\	-son	8dd\	-son	8bb-\	-son	8B-/	.	8f|>\	.
.	.	.	.	.	16b-/	.	.	.	.	.	.	.	.	.	.	.	.	.	.	.
8r	.	.	8r	.	16b-/	.	.	8r	.	.	8r	.	8r	.	8r	.	8r	.	8r	.
.	.	.	.	.	16b-/JJ	.	.	.	.	.	.	.	.	.	.	.	.	.	.	.
8r	.	.	8r	.	16b-\LL	.	.	8r	.	.	8r	.	8r	.	8r	.	4r	.	4r	.
.	.	.	.	.	16b-\	.	.	.	.	.	.	.	.	.	.	.	.	.	.	.
8A-\	4 2	.	8b-\	.	16dd\	.	.	16A-\	.	Ky-	16f\	Ky-	16b-\	Ky-	16dd\	Ky-	.	.	.	.
.	.	.	.	.	16b-\JJ	.	.	16A-\	.	-ri-	16f\	-ri-	16b-\	-ri-	16dd\	-ri-	.	.	.	.
!	!	!	!	!	!	!	!	!LO:LB:g=original	!	!	!	!	!	!	!	!	!	!	!	!
8G\L	6	.	8b-\L	.	16ee-\LL	.	.	8G\	.	-ae	8e-\	-ae	8b-\	-ae	8ee-\	-ae	4r	.	4r	.
.	.	.	.	.	16b-\	.	.	.	.	.	.	.	.	.	.	.	.	.	.	.
8D\	6	.	8b-\	.	16ff\	.	.	8D\	.	e-	8f\	e-	8b-\	e-	8ff\	e-	.	.	.	.
.	.	.	.	.	16b-\JJ	.	.	.	.	.	.	.	.	.	.	.	.	.	.	.
8E-\	.	.	8b-\	.	16gg\LL	.	.	8E-\	.	-lei-	4e-\	-lei-	8b-\L	-lei-	8gg\L	-lei-	8r	.	8r	.
.	.	.	.	.	16b-\	.	.	.	.	.	.	.	.	.	.	.	.	.	.	.
8C\J	6n	.	8ee-\J	.	16aan\	.	.	8C/	.	.	.	.	8cc\J	.	8aan\J	.	8f\	.	8f|>\	.
.	.	.	.	.	16b-\JJ	.	.	.	.	.	.	.	.	.	.	.	.	.	.	.
=60	=60	=60	=60	=60	=60	=60	=60	=60	=60	=60	=60	=60	=60	=60	=60	=60	=60	=60	=60	=60
!	!	!	!	!	!LO:TX:t=P:problem=mixed beam	!	!	!	!	!	!	!	!	!	!	!	!	!	!	!
!	!	!	!	!	!	!	!	!	!	!	!LO:LB:g=original	!	!	!	!	!	!	!	!	!
4BB-/	.	.	8dd\L	.	16bb-\LL	.	1ryy	4BB-/	.	-son	8d\	-son	4dd\	-son	4bb-\	-son	4B-/	.	4f\	.
.	.	.	.	.	16b-/	.	.	.	.	.	.	.	.	.	.	.	.	.	.	.
.	.	.	8dd\	.	16b-/	.	.	.	.	.	8f\	e-	.	.	.	.	.	.	.	.
.	.	.	.	.	16b-/JJ	.	.	.	.	.	.	.	.	.	.	.	.	.	.	.
*	*	*	*	*	*	*	*	*	*	*	*	*	*	*	*	*ij	*	*	*	*
!LO:TX:b:i:t=V&colon;S&colon;	!	!	!	!	!LO:TX:t=P:problem=mixed beam	!	!	!	!	!	!	!	!	!	!	!	!	!	!	!
!LO:PB:g=original	!	!	!	!	!	!	!	!	!	!	!	!	!	!	!	!	!	!	!	!
4D\	5-	.	8ff\	.	16aa-X\LL	.	.	4D\	.	e-	4f\	-lei-	4b-\	e-	4aa-X\	e-	4B-/	.	4f\	.
.	.	.	.	.	16b-/	.	.	.	.	.	.	.	.	.	.	.	.	.	.	.
.	.	.	8ff\J	.	16b-/	.	.	.	.	.	.	.	.	.	.	.	.	.	.	.
.	.	.	.	.	16b-/JJ	.	.	.	.	.	.	.	.	.	.	.	.	.	.	.
*	*	*	*tremolo	*	*	*	*	*	*	*	*	*	*	*	*	*	*	*	*	*
!	!	!	!	!	!LO:TX:t=P:problem=mixed beam	!	!	!	!	!	!	!	!	!	!	!	!	!	!	!
4E-\	.	.	8ee-\L	.	16gg\LL	.	.	4E-\	.	-lei-	4e-\	-son	4b-\	-lei-	4gg\	-lei-	4e-\	.	4g\	.
.	.	.	.	.	16b-/	.	.	.	.	.	.	.	.	.	.	.	.	.	.	.
.	.	.	8ee-\	.	16b-/	.	.	.	.	.	.	.	.	.	.	.	.	.	.	.
.	.	.	.	.	16b-/JJ	.	.	.	.	.	.	.	.	.	.	.	.	.	.	.
4A-\	.	.	8ee-\	.	16ccc\LL	.	.	4A-\	.	.	4E-/	e-	4cc\	.	4ee-\	.	4E-/	.	4e-\	.
.	.	.	.	.	16ee-\	.	.	.	.	.	.	.	.	.	.	.	.	.	.	.
.	.	.	8ee-\J	.	16ee-\	.	.	.	.	.	.	.	.	.	.	.	.	.	.	.
.	.	.	.	.	16ee-\JJ	.	.	.	.	.	.	.	.	.	.	.	.	.	.	.
=61	=61	=61	=61	=61	=61	=61	=61	=61	=61	=61	=61	=61	=61	=61	=61	=61	=61	=61	=61	=61
4G\	.	.	8ee-\L	.	16bb-\LL	.	1ryy	4G\	.	-son	8G\L	-lei-	8b-\L	.	4ee-\	-son	2E-/	.	2e-\	.
*	*	*	*	*	*	*	*	*	*	*	*	*	*	*	*	*Xij	*	*	*	*
.	.	.	.	.	16ee-\	.	.	.	.	.	.	.	.	.	.	.	.	.	.	.
.	.	.	8ee-\	.	16ee-\	.	.	.	.	.	8B-\J	.	8g\J	.	.	.	.	.	.	.
.	.	.	.	.	16ee-\JJ	.	.	.	.	.	.	.	.	.	.	.	.	.	.	.
8c\L	10	.	8ee-\	.	16eee-\LL	.	.	8c\L	.	e-	8e-\L	.	4e-\	-son	8ff\L	e-	.	.	.	.
.	.	.	.	.	16ee-\	.	.	.	.	.	.	.	.	.	.	.	.	.	.	.
8B-\J	10	.	8ee-\J	.	16ddd\	.	.	8B-\J	.	.	8d\J	.	.	.	8ee-\J	.	.	.	.	.
.	.	.	.	.	16ee-\JJ	.	.	.	.	.	.	.	.	.	.	.	.	.	.	.
8A-\L	10	.	8ee-\L	.	16ccc\LL	.	.	8A-\L	.	-lei-	8c\L	.	2e-\	e-	8dd\L	-lei-	2E-/	.	2e-\	.
.	.	.	.	.	16ee-\	.	.	.	.	.	.	.	.	.	.	.	.	.	.	.
8G\J	10	.	8ee-\	.	16bb-\	.	.	8G\J	.	.	8B-\J	.	.	.	8cc\J	.	.	.	.	.
.	.	.	.	.	16ee-\JJ	.	.	.	.	.	.	.	.	.	.	.	.	.	.	.
8c\L	10	.	8ee-\	.	16eee-\LL	.	.	8c\L	.	.	8e-\L	.	.	.	8ff\L	.	.	.	.	.
.	.	.	.	.	16ee-\	.	.	.	.	.	.	.	.	.	.	.	.	.	.	.
8B-\J	10	.	8ee-\J	.	16ddd\	.	.	8B-\J	.	.	8d\J	.	.	.	8ee-\J	.	.	.	.	.
.	.	.	.	.	16ee-\JJ	.	.	.	.	.	.	.	.	.	.	.	.	.	.	.
=62	=62	=62	=62	=62	=62	=62	=62	=62	=62	=62	=62	=62	=62	=62	=62	=62	=62	=62	=62	=62
!	!	!	!	!	!	!	!	!	!	!	!	!	!	!	!	!	!LO:LB:g=original	!	!	!
8A-\L	10	.	8ee-\L	.	16ccc\LL	.	1ryy	8A-\L	.	.	8c\L	.	2e-\	-lei-	8dd\L	.	2E-/	.	2e-	.
.	.	.	.	.	16ee-\	.	.	.	.	.	.	.	.	.	.	.	.	.	.	.
8G\J	10	.	8ee-\	.	16bb-\	.	.	8G\J	.	.	8B-\J	.	.	.	8cc\J	.	.	.	.	.
.	.	.	.	.	16ee-\JJ	.	.	.	.	.	.	.	.	.	.	.	.	.	.	.
8c\L	10	.	8ee-\	.	16eee-\LL	.	.	8c\L	.	.	8e-\L	.	.	.	8ff\L	.	.	.	.	.
.	.	.	.	.	16ee-\	.	.	.	.	.	.	.	.	.	.	.	.	.	.	.
8B-\J	10	.	8ee-\J	.	16ddd\	.	.	8B-\J	.	.	8d\J	.	.	.	8dd\J	.	.	.	.	.
.	.	.	.	.	16ee-\JJ	.	.	.	.	.	.	.	.	.	.	.	.	.	.	.
*	*	*	*Xtremolo	*	*	*	*	*	*	*	*	*	*	*	*	*	*	*	*	*
!	!	!	!	!	!	!	!	!	!	!	!	!	!	!	!	!	!LO:TX:t=P:problem=mixed beam	!	!	!
8A-\L	10	.	8ee-\L	.	16ccc\LL	.	.	8A-\L	.	.	8c\L	.	4e-\	.	8cc\L	.	8E-/L	.	4e-	.
.	.	.	.	.	16ee-\	.	.	.	.	.	.	.	.	.	.	.	.	.	.	.
8G\	10	.	8ee-\	.	16bb-\	.	.	8G\J	.	.	8B-\J	.	.	.	8b-\J	.	8e-\	.	.	.
.	.	.	.	.	16ee-\JJ	.	.	.	.	.	.	.	.	.	.	.	.	.	.	.
8A-\J	.	.	8ee-\J	.	16ccc\LL	.	.	8A-\	.	-son	8c\	-son	8e-\	-son	8cc\	-son	8E-/J	.	8e-	.
.	.	.	.	.	16eee-\	.	.	.	.	.	.	.	.	.	.	.	.	.	.	.
!	!	!	!	!	!	!	!	!	!	!	!	!	!	!	!LO:SIC:v:s=8a-/	!	!	!	!	!
8r	.	.	8r	.	16ccc\	.	.	8c\	.	e-	8A-/	e-	8e-\	e-	8a/	e-	8r	.	8r	.
.	.	.	.	.	16aa-\JJ	.	.	.	.	.	.	.	.	.	.	.	.	.	.	.
=63	=63	=63	=63	=63	=63	=63	=63	=63	=63	=63	=63	=63	=63	=63	=63	=63	=63	=63	=63	=63
!LO:TX:t=P:problem=mixed beam	!	!	!	!	!	!	!	!	!	!	!	!	!	!	!	!	!	!	!	!
!	!	!	!	!	!	!	!	!	!	!	!	!	!LO:LB:g=original	!	!LO:LB:g=original	!	!	!	!	!
8B-\L	6 4	.	4ee-\	.	4gg\	.	1ryy	4B-\	.	-lei-	2B-\	-lei-	4e-\	-lei-	4g/	-lei-	4e-\	.	4g	.
8B-\	.	.	.	.	.	.	.	.	.	.	.	.	.	.	.	.	.	.	.	.
!	!	!	!	!	!	!	!	!	!	!	!	!	!	!	!LO:TX:t=P:tr = t:problem	!	!	!	!	!
8BB-/	5 3	.	4dd\	.	4ffT\	.	.	4BB-/	.	.	.	.	4d\	.	4fT/	.	4B-/	.	4f	.
8BB-/J	.	.	.	.	.	.	.	.	.	.	.	.	.	.	.	.	.	.	.	.
!	!	!	!LO:TX:t=P:problem=mixed beam	!	!	!	!	!	!	!	!	!	!	!	!	!	!	!	!	!
8E-\L	.	.	8ee-\L	.	32ee-\LL	.	.	4E-\	.	-son	4B-\	-son	4e-\	-son	4g/	-son	8G/	.	8e-	.
.	.	.	.	.	32ff\	.	.	.	.	.	.	.	.	.	.	.	.	.	.	.
.	.	.	.	.	32gg\	.	.	.	.	.	.	.	.	.	.	.	.	.	.	.
.	.	.	.	.	32ff\	.	.	.	.	.	.	.	.	.	.	.	.	.	.	.
8e-\	.	.	8e-/	.	16ee-\	.	.	.	.	.	.	.	.	.	.	.	8r	.	8r	.
.	.	.	.	.	16ee-\JJ	.	.	.	.	.	.	.	.	.	.	.	.	.	.	.
!	!	!	!	!	!LO:TX:t=P:problem	!	!LO:TX:t=P:problem=mixed beam	!	!	!	!	!	!	!	!	!	!	!	!	!
8c\	10	.	8e-/	.	16ee-\LL	.	.	8c\L	.	e-	8e-\L	e-	4e-\	e-	8ee-\L	e-	4E-/	.	4e-	.
.	.	.	.	.	16e-/	.	.	.	.	.	.	.	.	.	.	.	.	.	.	.
8B-\J	10	.	8e-/J	.	16dd\	.	.	8B-\J	.	.	8d\J	.	.	.	8dd\J	.	.	.	.	.
.	.	.	.	.	16e-/JJ	.	.	.	.	.	.	.	.	.	.	.	.	.	.	.
=64	=64	=64	=64	=64	=64	=64	=64	=64	=64	=64	=64	=64	=64	=64	=64	=64	=64	=64	=64	=64
*	*	*	*tremolo	*	*	*	*	*	*	*	*	*	*	*	*	*	*	*	*	*
!	!	!	!	!	!	!	!	!LO:LB:g=original	!	!	!	!	!	!	!	!	!	!	!	!
!	!	!	!LO:LB:g=original	!	!LO:TX:t=P:problem=mixed beam	!	!	!	!	!	!	!	!	!	!	!	!	!	!	!
8A-\L	10	.	8e-/L	.	16cc\LL	.	1ryy	8A-\	.	-lei-	8c\L	-lei-	1e-	-lei-	8cc\L	-lei-	2E-/	.	2e-	.
.	.	.	.	.	16e-/	.	.	.	.	.	.	.	.	.	.	.	.	.	.	.
8G\J	10	.	8e-/	.	16b-\	.	.	8G\	.	-son	8B-\J	.	.	.	8b-\J	.	.	.	.	.
.	.	.	.	.	16e-/JJ	.	.	.	.	.	.	.	.	.	.	.	.	.	.	.
*	*	*	*	*	*	*	*	*	*	*ij	*	*	*	*	*	*	*	*	*	*
!	!	!	!	!	!LO:TX:t=P:problem=mixed beam	!	!	!	!	!	!	!	!	!	!	!	!	!	!	!
8c\L	10	.	8e-/	.	16ee-\LL	.	.	8c\L	.	e-	8e-\L	.	.	.	8ee-\L	.	.	.	.	.
.	.	.	.	.	16e-/	.	.	.	.	.	.	.	.	.	.	.	.	.	.	.
8B-\J	10	.	8e-/J	.	16dd\	.	.	8B-\J	.	.	8d\J	.	.	.	8dd\J	.	.	.	.	.
.	.	.	.	.	16e-/JJ	.	.	.	.	.	.	.	.	.	.	.	.	.	.	.
!	!	!	!	!	!	!	!	!	!	!	!LO:LB:g=original	!	!	!	!	!	!	!	!	!
8A-\L	10	.	8e-/L	.	16cc/LL	.	.	8A-\	.	-lei-	8c\L	.	.	.	8cc\L	.	2E-/	.	2e-	.
.	.	.	.	.	16e-/	.	.	.	.	.	.	.	.	.	.	.	.	.	.	.
8G\J	10	.	8e-/	.	16b-/	.	.	8G\	.	-son	8B-\J	.	.	.	8b-\J	.	.	.	.	.
.	.	.	.	.	16e-/JJ	.	.	.	.	.	.	.	.	.	.	.	.	.	.	.
*	*	*	*	*	*	*	*	*	*	*Xij	*	*	*	*	*	*	*	*	*	*
!	!	!	!	!	!LO:TX:t=P:problem=mixed beam	!	!	!	!	!	!	!	!	!	!	!	!	!	!	!
8c\L	10	.	8e-/	.	16ee-\LL	.	.	8c\L	.	e-	8e-\L	.	.	.	8ee-\L	.	.	.	.	.
.	.	.	.	.	16e-/	.	.	.	.	.	.	.	.	.	.	.	.	.	.	.
8B-\J	10	.	8e-/J	.	16dd\	.	.	8B-\J	.	.	8d\J	.	.	.	8dd\J	.	.	.	.	.
.	.	.	.	.	16e-/JJ	.	.	.	.	.	.	.	.	.	.	.	.	.	.	.
*	*	*	*Xtremolo	*	*	*	*	*	*	*	*	*	*	*	*	*	*	*	*	*
=65	=65	=65	=65	=65	=65	=65	=65	=65	=65	=65	=65	=65	=65	=65	=65	=65	=65	=65	=65	=65
!LO:LB:g=original	!	!	!	!	!LO:TX:t=P:problem=mixed beam	!	!	!	!	!	!	!	!	!	!	!	!LO:TX:t=P:problem=mixed beam	!	!	!
8A-\L	10	.	8e-/L	.	16cc\LL	.	1ryy	8A-\L	.	-lei-	8c\L	.	4e-\	.	8cc\L	.	8E-/L	.	4e-\	.
.	.	.	.	.	16e-\	.	.	.	.	.	.	.	.	.	.	.	.	.	.	.
8G\	10	.	8e-/	.	16b-\	.	.	8G\J	.	.	8B-\J	.	.	.	8b-\J	.	8e-\	.	.	.
.	.	.	.	.	16e-\JJ	.	.	.	.	.	.	.	.	.	.	.	.	.	.	.
8A-\J	5	.	8e-/J	.	16cc\LL	.	.	8A-\	.	-son	8c\	-son	8e-\	-son	8cc\	-son	8E-/J	.	8e-\	.
.	.	.	.	.	16ee-\	.	.	.	.	.	.	.	.	.	.	.	.	.	.	.
*	*	*	*	*	*	*	*	*	*	*	*	*	*	*ij	*	*	*	*	*	*
8r	.	.	8r	.	32dd\L	.	.	8c\	.	e-	8A-/	e-	8a-\	e-	8ff\	e-	8r	.	8r	.
.	.	.	.	.	32cc\	.	.	.	.	.	.	.	.	.	.	.	.	.	.	.
.	.	.	.	.	32b-\	.	.	.	.	.	.	.	.	.	.	.	.	.	.	.
.	.	.	.	.	32a-\JJJ	.	.	.	.	.	.	.	.	.	.	.	.	.	.	.
!LO:TX:t=P:problem=mixed beam	!	!	!	!	!	!	!	!	!	!	!	!	!	!	!	!	!	!	!	!
!	!	!	!	!	!LO:LB:g=original	!	!	!	!	!	!	!	!	!	!	!	!	!	!	!
8B-\L	6 4	.	8e-/L	.	8g/L	.	.	4B-\	.	-lei-	2B-\	-lei-	4g\	-lei-	4ee-\	-lei-	8e-\L	.	8g\L	.
8B-\	.	.	8e-/	.	8g/	.	.	.	.	.	.	.	.	.	.	.	8e-\	.	8g\	.
8BB-/	5 3	.	8d/	.	8f/	.	.	4BB-/	.	.	.	.	4f\	.	4dd\	.	8B-\	.	8f\	.
8BB-/J	.	.	8d/J	.	8f/J	.	.	.	.	.	.	.	.	.	.	.	8B-\J	.	8f\J	.
=66	=66	=66	=66	=66	=66	=66	=66	=66	=66	=66	=66	=66	=66	=66	=66	=66	=66	=66	=66	=66
!	!	!	!	!	!	!	!	!	!	!	!	!	!	!	!LO:TX:t=P:problem=fragment repetowany; w dwudźwięku wyższa nuta prawdopodobnie dla pierwszego pojawienia, druga dla powtórzenia	!	!	!	!	!
!	!	!	!	!	!	!	!	!	!	!	!	!	!	!	!	!	!	!	!LO:LB:g=original	!
8E-\	.	.	16r	.	16r	.	1ryy	4E-\	.	-son	4B-\	-son	4g\	-son	4ee- 4g\	-son	4G/	.	4e-\	.
*	*	*	*	*	*	*	*	*	*	*	*	*	*	*Xij	*	*	*	*	*	*
.	.	.	16G'/LL	.	16e-'/LL	.	.	.	.	.	.	.	.	.	.	.	.	.	.	.
8r	.	.	16G'/	.	16e-'/	.	.	.	.	.	.	.	.	.	.	.	.	.	.	.
.	.	.	16G'/JJ	.	16e-'/JJ	.	.	.	.	.	.	.	.	.	.	.	.	.	.	.
8G\	5-	.	16r	.	16r	.	.	4G\	.	e-	4E-/	e-	4b-\	e-	4dd-X\	e-	4e-\	.	4g\	.
.	.	.	16B-'/LL	.	16d-X'/LL	.	.	.	.	.	.	.	.	.	.	.	.	.	.	.
8r	.	.	16B-'/	.	16d-'/	.	.	.	.	.	.	.	.	.	.	.	.	.	.	.
.	.	.	16B-'/JJ	.	16d-'/JJ	.	.	.	.	.	.	.	.	.	.	.	.	.	.	.
8A-\	5	.	16r	.	16r	.	.	4A-\	.	-lei-	4E-/	-lei-	2a-\	-lei-	4cc\	-lei-	4e-\	.	4a-\	.
.	.	.	16A-'/LL	.	16c'/LL	.	.	.	.	.	.	.	.	.	.	.	.	.	.	.
8r	.	.	16A-'/	.	16c'/	.	.	.	.	.	.	.	.	.	.	.	.	.	.	.
.	.	.	16A-'/JJ	.	16c'/JJ	.	.	.	.	.	.	.	.	.	.	.	.	.	.	.
8F\	6#	.	16r	.	16r	.	.	4F\	.	.	4F/	.	.	.	4ddn\	.	4f\	.	4a-\	.
.	.	.	16A-'/LL	.	16dn'/LL	.	.	.	.	.	.	.	.	.	.	.	.	.	.	.
8r	.	.	16A-'/	.	16d'/	.	.	.	.	.	.	.	.	.	.	.	.	.	.	.
.	.	.	16A-'/JJ	.	16d'/JJ	.	.	.	.	.	.	.	.	.	.	.	.	.	.	.
=67	=67	=67	=67	=67	=67	=67	=67	=67	=67	=67	=67	=67	=67	=67	=67	=67	=67	=67	=67	=67
8E-\	.	.	16r	.	16r	.	1ryy	4E-\	.	-son	8G/L	.	4g\	.	4ee-\	.	4e-\	.	4g\	.
.	.	.	16G/LL	.	16e-'/LL	.	.	.	.	.	.	.	.	.	.	.	.	.	.	.
8r	.	.	16G/	.	16e-'/	.	.	.	.	.	8B-/J	.	.	.	.	.	.	.	.	.
.	.	.	16G/JJ	.	16e-'/JJ	.	.	.	.	.	.	.	.	.	.	.	.	.	.	.
8G\	5-	.	16r	.	16r	.	.	4G\	.	e-	4E-/	.	4b-\	.	4dd-X\	.	4e-\	.	4g\	.
.	.	.	16B-/LL	.	16d-X'/LL	.	.	.	.	.	.	.	.	.	.	.	.	.	.	.
8r	.	.	16B-/	.	16d-'/	.	.	.	.	.	.	.	.	.	.	.	.	.	.	.
.	.	.	16B-/JJ	.	16d-'/JJ	.	.	.	.	.	.	.	.	.	.	.	.	.	.	.
!	!	!	!LO:TX:t=P:problem=mixed beam	!	!LO:TX:t=P:problem=mixed beam	!	!	!	!	!	!	!	!	!	!	!	!	!	!	!
4A-\	.	.	16A-/LL	.	16c/LL	.	.	8A-\	.	-lei-	8E-/	.	8a-\	.	8cc\	.	8e-\	.	8a-\	.
.	.	.	16a-\	.	16cc\	.	.	.	.	.	.	.	.	.	.	.	.	.	.	.
.	.	.	16g\	.	16b-\	.	.	8r	.	.	8r	.	8r	.	8r	.	8r	.	8r	.
.	.	.	16f\JJ	.	16a-\JJ	.	.	.	.	.	.	.	.	.	.	.	.	.	.	.
!LO:TX:t=P:problem=mixed beam	!	!	!	!	!	!	!	!	!	!	!	!	!	!	!	!	!	!	!	!
8B-\L	6 4	.	8e-/L	.	8g/L	.	.	4B-\	.	.	4B-\	.	8e-\L	.	8g/L	.	8e-\L	.	8g\L	.
8BB-/J	5 3	.	8d/J	.	8f/J	.	.	.	.	.	.	.	8d\J	.	8f/J	.	8B-\J	.	8f\J	.
=68	=68	=68	=68	=68	=68	=68	=68	=68	=68	=68	=68	=68	=68	=68	=68	=68	=68	=68	=68	=68
!	!	!	!	!	!	!	!	!	!	!	!	!	!	!	!LO:TX:t=P:problem=t. 68-69 zapisane powtórką	!	!	!	!	!
!	!	!	!	!	!LO:TX:t=P:problem=mixed beam	!	!	!	!	!	!	!	!	!	!LO:TX:t=P:problem=fragment repetowany; w dwudźwięku wyższa nuta prawdopodobnie dla pierwszego pojawienia, druga dla powtórzenia	!	!	!	!	!
4E-\	.	.	16e-'/LL	.	16e-/LL	.	1ryy	4E-\	.	-son	4B-\	-son	4e-\	-son	4ee- 4g\	-son	4G/	.	4e-\	.
.	.	.	16g'/	.	16ee-'\	.	.	.	.	.	.	.	.	.	.	.	.	.	.	.
.	.	.	16g'/	.	16ee-'\	.	.	.	.	.	.	.	.	.	.	.	.	.	.	.
.	.	.	16g'/JJ	.	16ee-'\JJ	.	.	.	.	.	.	.	.	.	.	.	.	.	.	.
4G\	5-	.	16r	.	16r	.	.	4G\	.	e-	4E-/	e-	4b-\	e-	4dd-X\	e-	4e-\	.	4g\	.
.	.	.	16b-'\LL	.	16dd-X'\LL	.	.	.	.	.	.	.	.	.	.	.	.	.	.	.
.	.	.	16b-'\	.	16dd-'\	.	.	.	.	.	.	.	.	.	.	.	.	.	.	.
.	.	.	16b-'\JJ	.	16dd-'\JJ	.	.	.	.	.	.	.	.	.	.	.	.	.	.	.
4A-\	.	.	16r	.	16r	.	.	4A-\	.	-lei-	4E-/	-lei-	2a-\	-lei-	4cc\	-lei-	4e-\	.	4a-\	.
.	.	.	16a-'/LL	.	16cc'\LL	.	.	.	.	.	.	.	.	.	.	.	.	.	.	.
.	.	.	16a-'/	.	16cc'\	.	.	.	.	.	.	.	.	.	.	.	.	.	.	.
.	.	.	16a-'/JJ	.	16cc'\JJ	.	.	.	.	.	.	.	.	.	.	.	.	.	.	.
4F\	6n	.	16r	.	16r	.	.	4F\	.	.	4F/	.	.	.	4ddn\	.	4f\	.	4a-\	.
.	.	.	16a-'/LL	.	16ddn'\LL	.	.	.	.	.	.	.	.	.	.	.	.	.	.	.
.	.	.	16a-'/	.	16dd'\	.	.	.	.	.	.	.	.	.	.	.	.	.	.	.
.	.	.	16a-'/JJ	.	16dd'\JJ	.	.	.	.	.	.	.	.	.	.	.	.	.	.	.
=69	=69	=69	=69	=69	=69	=69	=69	=69	=69	=69	=69	=69	=69	=69	=69	=69	=69	=69	=69	=69
!	!	!	!	!	!	!	!	!LO:LB:g=original	!	!	!	!	!LO:LB:g=original	!	!	!	!LO:LB:g=original	!	!	!
!	!	!	!	!	!LO:LB:g=original	!	!	!	!	!	!	!	!	!	!	!	!	!	!	!
8E-\	.	.	16r	.	16r	.	1ryy	4E-\	.	-son	8G/L	.	4g\	.	4ee-\	.	4e-\	.	4g\	.
.	.	.	16g'/LL	.	16ee-'\LL	.	.	.	.	.	.	.	.	.	.	.	.	.	.	.
8r	.	.	16g'/	.	16ee-'\	.	.	.	.	.	8B-/J	.	.	.	.	.	.	.	.	.
.	.	.	16g'/JJ	.	16ee-'\JJ	.	.	.	.	.	.	.	.	.	.	.	.	.	.	.
8G\	5-	.	16r	.	16r	.	.	4G\	.	e-	4E-/	.	4b-\	.	4dd-X\	.	4e-\	.	4g\	.
.	.	.	16b-'/LL	.	16dd-X'\LL	.	.	.	.	.	.	.	.	.	.	.	.	.	.	.
8r	.	.	16b-'/	.	16dd-'\	.	.	.	.	.	.	.	.	.	.	.	.	.	.	.
.	.	.	16b-'/JJ	.	16dd-'\JJ	.	.	.	.	.	.	.	.	.	.	.	.	.	.	.
8A-\	.	.	16a-\LL	.	16cc\LL	.	.	8A-\	.	-lei-	8E-/	.	8a-\	.	8cc\	.	8e-\	.	8a-\	.
.	.	.	16cc\	.	16ee-\	.	.	.	.	.	.	.	.	.	.	.	.	.	.	.
8r	.	.	16a-\	.	16cc\	.	.	8r	.	.	8r	.	8r	.	8r	.	8r	.	8r	.
.	.	.	16f\JJ	.	16a-\JJ	.	.	.	.	.	.	.	.	.	.	.	.	.	.	.
!LO:TX:t=P:problem=mixed beam	!	!	!	!	!	!	!	!LO:TX:t=P:problem=mixed beam	!	!	!	!	!	!	!	!	!	!	!	!
8B-\L	6 4	.	8e-/L	.	8g/L	.	.	8B-\L	.	.	4B-\	.	8e-\L	.	8g/L	.	8e-\L	.	8g\L	.
8BB-\J	5 3	.	8d/J	.	8f/J	.	.	8BB-/J	.	.	.	.	8d\J	.	8f/J	.	8B-\J	.	8f\J	.
=70	=70	=70	=70	=70	=70	=70	=70	=70	=70	=70	=70	=70	=70	=70	=70	=70	=70	=70	=70	=70
!	!	!	!	!	!	!	!	!	!	!	!LO:LB:g=original	!	!	!	!	!	!	!	!	!LO:DY:b:t=pianiſsimo.
!	!	!	!	!	!	!LO:DY:b:t=pianiſsimo	!	!	!	!	!	!	!	!	!	!	!	!	!	!
!LO:LB:g=original	!	!	!	!LO:DY:b:t=pianiſsimo	!	!	!	!	!	!	!	!	!	!	!	!	!	!	!	!
!	!	!LO:DY:b:t=pianiſ&colon;	!	!	!	!	!	!	!	!	!	!	!	!	!	!	!	!	!	!
8E-\L	.	pp	16G/LL	pp	16e-/LL	pp	1ryy	8E-\	.	-son.	8B-\	-son	8e-\	-son.	8g/	-son	8G/L	.	8e-\L	pp
.	.	.	16B-/J	.	16g/	.	.	.	.	.	.	.	.	.	.	.	.	.	.	.
8BB-\J	.	.	8A-/J	.	16f/	.	.	8r	.	.	8r	.	8r	.	8r	.	8B-/	.	8f\	.
.	.	.	.	.	16d/JJ	.	.	.	.	.	.	.	.	.	.	.	.	.	.	.
!	!	!	!	!	!	!	!	!	!	!	!	!	!	!	!	!	!	!LO:DY:b:t=pianiſsimo	!	!
8E-\L	.	.	16G/LL	.	16e-/LL	.	.	4r	.	.	4r	.	4r	.	4r	.	8G/	pp	8e-\	.
.	.	.	16B-/J	.	16g/	.	.	.	.	.	.	.	.	.	.	.	.	.	.	.
8BB-\J	.	.	8A-/J	.	16f/	.	.	.	.	.	.	.	.	.	.	.	8B-/J	.	8f\J	.
.	.	.	.	.	16d/JJ	.	.	.	.	.	.	.	.	.	.	.	.	.	.	.
*tremolo	*	*	*	*	*	*	*	*	*	*	*	*	*	*	*	*	*	*	*	*
8E-\L	.	.	8G/L	.	8e-/L	.	.	2r	.	.	2r	.	2r	.	2r	.	8G/L	.	8e-\L	.
8E-\	.	.	8G/	.	8e-/	.	.	.	.	.	.	.	.	.	.	.	8G/	.	8e-\	.
8E-\	.	.	8G/	.	8e-/	.	.	.	.	.	.	.	.	.	.	.	8G/	.	8e-\	.
8E-\J	.	.	8G/J	.	8e-/J	.	.	.	.	.	.	.	.	.	.	.	8G/J	.	8e-\J	.
*Xtremolo	*	*	*	*	*	*	*	*	*	*	*	*	*	*	*	*	*	*	*	*
=71	=71	=71	=71	=71	=71	=71	=71	=71	=71	=71	=71	=71	=71	=71	=71	=71	=71	=71	=71	=71
!	!	!	!	!	!	!	!	!LO:TX:b:i:t=V&colon; Dies irae Solo.	!	!	!LO:TX:b:i:t=V. Dies irae	!	!LO:TX:b:i:t=V&colon;C&colon; Dies irae	!	!LO:TX:b:i:t=V&colon;C&colon;	!	!	!	!	!
4E-\	.	.	4G/	.	4e-/	.	1ryy	1r	.	.	1r	.	1r	.	1r	.	4G/	.	4e-\	.
4r	.	.	4r	.	4r	.	.	.	.	.	.	.	.	.	.	.	4r	.	4r	.
2r	.	.	2r	.	2r	.	.	.	.	.	.	.	.	.	.	.	2r	.	2r	.
==	==	==	==	==	==	==	==	==	==	==	==	==	==	==	==	==	==	==	==	==
*-	*-	*-	*-	*-	*-	*-	*-	*-	*-	*-	*-	*-	*-	*-	*-	*-	*-	*-	*-	*-
!!!system-decoration: [(g1)][(g2)][(g3)]s10
!!!RDF**dynam: p = pia:
!!!RDF**dynam: f = for
!!!RDF**kern: > = above
!!!RDF**kern: < = below
!!!RDF**kern: | = vertical stroke
!!!RDF**kern: N = cue size
!!!ENC: Marcin Jachim
!!!END: 2020-08-16
!!!ENC: Kamil Watkowski
!!!END: 2021-10-30
!!!YEC: Copyright 2022 Narodowy Instytut Fryderyka Chopina (https://polishscores.org)
!!!YEM: License CC-BY-4.0 (https://creativecommons.org/licenses/by/4.0)
